app/src/main/assets/lut/b&w.cube
#Generated with IWLTBAP LUT Generator
#Website: http://luts.iwltbap.com
TITLE "CineStill-800-T-V1.0--N125"
#LUT size
LUT_3D_SIZE 5
#LUT data points
0 0 0
0.0393988 0.0413825 0.0411841
0.0783703 0.0831769 0.0827344
0.11989 0.127352 0.12665
0.167056 0.176394 0.175525
0.143954 0.142153 0.144137
0.193362 0.193561 0.195346
0.248814 0.251835 0.253361
0.310201 0.315862 0.317128
0.374884 0.382437 0.38352
0.341772 0.337423 0.342245
0.406561 0.404196 0.40882
0.469825 0.470283 0.474647
0.534096 0.537209 0.541299
0.598459 0.603449 0.60737
0.565744 0.558999 0.566461
0.629358 0.624613 0.631876
0.689204 0.687282 0.694286
0.74432 0.745037 0.751781
0.794842 0.797452 0.803998
0.770855 0.762417 0.771756
0.819486 0.813016 0.822171
0.862867 0.859236 0.868116
0.903349 0.902373 0.910994
0.942946 0.943847 0.952285
0.0141146 0.0139162 0.0121157
0.0535592 0.0553445 0.0533608
0.0930495 0.097673 0.0954147
0.135988 0.143252 0.140734
0.185321 0.194476 0.191775
0.160815 0.158831 0.159014
0.212451 0.212451 0.212451
0.27013 0.272969 0.272679
0.332799 0.338277 0.337758
0.397665 0.405035 0.404303
0.364584 0.360037 0.363058
0.429129 0.426566 0.429404
0.492561 0.492836 0.495399
0.556878 0.559792 0.562097
0.620645 0.625452 0.627573
0.588388 0.581445 0.587121
0.651164 0.64622 0.651682
0.709499 0.707378 0.712581
0.762814 0.763348 0.768292
0.811643 0.814054 0.81883
0.788739 0.780102 0.787655
0.835691 0.829038 0.836393
0.877852 0.874037 0.881117
0.917678 0.916487 0.923323
0.957107 0.957809 0.964462
0.0285039 0.0280461 0.0236973
0.0679026 0.0694285 0.0648814
0.108232 0.112581 0.107774
0.152911 0.159899 0.154833
0.204471 0.213352 0.208103
0.178531 0.176272 0.173907
0.232456 0.232181 0.229633
0.292134 0.294697 0.291859
0.355718 0.360922 0.357824
0.420386 0.427466 0.424201
0.387549 0.382727 0.383185
0.451652 0.448814 0.449088
0.515526 0.515526 0.515526
0.57966 0.5823 0.58204
0.642588 0.64712 0.646662
0.610941 0.603723 0.606836
0.672648 0.66743 0.670344
0.72929 0.726894 0.729549
0.780865 0.781109 0.783505
0.828 0.830137 0.832349
0.806165 0.797253 0.802243
0.85153 0.844602 0.849409
0.892683 0.888579 0.893111
0.931991 0.930541 0.934813
0.971435 0.971878 0.975967
0.042771 0.0420539 0.0353094
0.082414 0.0836805 0.0767529
0.123857 0.127962 0.12076
0.17055 0.177295 0.169833
0.224384 0.233021 0.225376
0.196994 0.194476 0.189715
0.253223 0.252689 0.247745
0.314549 0.316854 0.311635
0.378653 0.383597 0.378134
0.442863 0.449699 0.444038
0.410407 0.405325 0.403403
0.474327 0.471244 0.469123
0.53846 0.538201 0.535821
0.602197 0.604593 0.601953
0.664088 0.66836 0.665537
0.633173 0.625711 0.626429
0.693599 0.688121 0.68864
0.748455 0.745815 0.746059
0.798291 0.798291 0.798291
0.843854 0.845747 0.845548
0.82298 0.813825 0.816419
0.866941 0.85977 0.862181
0.90724 0.902907 0.905043
0.946242 0.944533 0.94641
0.98587 0.986053 0.987762
0.0569162 0.0560159 0.0475776
0.0971084 0.0981918 0.0895552
0.139971 0.143893 0.134981
0.188846 0.195407 0.186236
0.244999 0.253437 0.244099
0.216114 0.213413 0.206958
0.274556 0.273854 0.267201
0.337148 0.339269 0.332341
0.401419 0.40618 0.399008
0.465431 0.472084 0.464714
0.432944 0.427695 0.424063
0.497063 0.493797 0.489967
0.561227 0.5608 0.55671
0.624353 0.626566 0.622217
0.684962 0.689052 0.684535
0.654932 0.647288 0.646311
0.713832 0.708171 0.706996
0.766918 0.764096 0.762646
0.815045 0.814878 0.813169
0.85919 0.860899 0.859007
0.839139 0.829801 0.830701
0.88191 0.874556 0.875257
0.921538 0.917021 0.917449
0.960388 0.958495 0.958679
1 1 1
