app/src/main/assets/lut/b&w.cube
#Generated with IWLTBAP LUT Generator
#Website: http://luts.iwltbap.com
TITLE "CineStill-800-T-V1.0--N125"
#LUT size
LUT_3D_SIZE 9
#LUT data points
0 0 0
0.0197604 0.0206607 0.0205844
0.0393988 0.0413825 0.0411841
0.0587625 0.0621347 0.061799
0.0783703 0.0831769 0.0827344
0.0985885 0.104829 0.104204
0.11989 0.127352 0.12665
0.142641 0.151095 0.150256
0.167056 0.176394 0.175525
0.0694743 0.0686503 0.0695506
0.0896773 0.0897536 0.0905776
0.11046 0.11162 0.112337
0.132052 0.1346 0.13518
0.155001 0.158999 0.159442
0.179583 0.185016 0.185321
0.205997 0.212634 0.212818
0.234287 0.241917 0.242008
0.264271 0.272801 0.272801
0.143954 0.142153 0.144137
0.16791 0.167025 0.168917
0.193362 0.193561 0.195346
0.220264 0.221836 0.223499
0.248814 0.251835 0.253361
0.278889 0.28333 0.284718
0.310201 0.315862 0.317128
0.342367 0.34902 0.350195
0.374884 0.382437 0.38352
0.234379 0.231342 0.234699
0.263951 0.261814 0.265095
0.294728 0.293675 0.296849
0.326207 0.326543 0.32958
0.358175 0.359945 0.362844
0.390265 0.393469 0.396231
0.422248 0.426657 0.429313
0.454093 0.459495 0.462043
0.486397 0.492699 0.495171
0.341772 0.337423 0.342245
0.374243 0.370794 0.375525
0.406561 0.404196 0.40882
0.438209 0.437217 0.441718
0.469825 0.470283 0.474647
0.501823 0.5037 0.507927
0.534096 0.537209 0.541299
0.56643 0.57052 0.574533
0.598459 0.603449 0.60737
0.45362 0.447974 0.454215
0.485817 0.481071 0.487236
0.518151 0.514488 0.520546
0.550271 0.547997 0.553918
0.582147 0.581323 0.587091
0.613565 0.614176 0.619806
0.64448 0.646296 0.65182
0.674632 0.677424 0.682857
0.703655 0.707347 0.712688
0.565744 0.558999 0.566461
0.597879 0.59205 0.59942
0.629358 0.624613 0.631876
0.659815 0.656443 0.663584
0.689204 0.687282 0.694286
0.717342 0.716838 0.723705
0.74432 0.745037 0.751781
0.770184 0.771878 0.778531
0.794842 0.797452 0.803998
0.674327 0.666697 0.675135
0.703685 0.696971 0.705318
0.731609 0.725963 0.734218
0.757977 0.753719 0.761837
0.783017 0.780209 0.78819
0.806821 0.805432 0.813275
0.829557 0.829389 0.83711
0.851423 0.852247 0.859876
0.872541 0.87425 0.881788
0.770855 0.762417 0.771756
0.795865 0.788327 0.797574
0.819486 0.813016 0.822171
0.841672 0.836591 0.845624
0.862867 0.859236 0.868116
0.883299 0.881102 0.889845
0.903349 0.902373 0.910994
0.923217 0.923201 0.931746
0.942946 0.943847 0.952285
0.00688182 0.00679026 0.00598154
0.0268559 0.0276799 0.0267796
0.0464637 0.0483558 0.0473487
0.0658885 0.0691691 0.0680247
0.0856489 0.0903792 0.0890974
0.106157 0.112306 0.110887
0.12784 0.13521 0.133669
0.151125 0.159472 0.157855
0.176074 0.185336 0.183612
0.0766461 0.0757305 0.0758221
0.0970474 0.0970474 0.0970474
0.118151 0.119234 0.119127
0.140185 0.142641 0.142412
0.163668 0.16759 0.167193
0.18883 0.194156 0.193652
0.215808 0.222339 0.221729
0.244678 0.252201 0.251499
0.275135 0.283558 0.28278
0.152285 0.150393 0.151568
0.176791 0.175814 0.176883
0.202808 0.202899 0.203876
0.230274 0.231754 0.232609
0.259388 0.262318 0.26302
0.28986 0.294224 0.294789
0.321462 0.327031 0.327489
0.353765 0.360327 0.360678
0.386282 0.393744 0.394003
0.244617 0.241489 0.244022
0.274693 0.272465 0.274922
0.305837 0.304692 0.307042
0.337545 0.337774 0.340002
0.369574 0.371267 0.373342
0.401633 0.404746 0.406683
0.433417 0.437751 0.439567
0.465385 0.470695 0.472435
0.497795 0.504005 0.505653
0.353155 0.348714 0.352712
0.385657 0.382116 0.386038
0.417868 0.415412 0.419211
0.449393 0.448325 0.452003
0.481163 0.481544 0.485069
0.513237 0.515038 0.518425
0.545495 0.548516 0.551797
0.577722 0.58172 0.584909
0.609583 0.614481 0.617578
0.464866 0.459144 0.464561
0.497185 0.492363 0.497704
0.529564 0.525811 0.531044
0.561654 0.559289 0.564385
0.593378 0.592477 0.597421
0.624613 0.625116 0.629938
0.655222 0.656947 0.661646
0.684993 0.687709 0.692317
0.713573 0.717189 0.721706
0.577066 0.570245 0.576883
0.609064 0.603143 0.609689
0.640299 0.635447 0.641901
0.670436 0.666972 0.673289
0.699413 0.697398 0.703578
0.727092 0.726513 0.732555
0.753628 0.754269 0.760189
0.779065 0.780667 0.786496
0.803296 0.805814 0.811566
0.68481 0.677089 0.684703
0.713741 0.70692 0.714458
0.741207 0.73547 0.742901
0.767132 0.762783 0.770092
0.791745 0.788846 0.796002
0.815122 0.813657 0.820676
0.837476 0.837217 0.844129
0.859037 0.85977 0.866575
0.879911 0.881544 0.888273
0.779858 0.771328 0.779858
0.80444 0.796811 0.805249
0.827634 0.821088 0.829419
0.849485 0.844312 0.852506
0.870375 0.866667 0.874723
0.890623 0.888334 0.896254
0.910521 0.909438 0.91725
0.930282 0.93019 0.937911
0.950011 0.95082 0.95845
0.0141146 0.0139162 0.0121157
0.0339666 0.0346838 0.0328069
0.0535592 0.0553445 0.0533608
0.0730755 0.0762493 0.0741436
0.0930495 0.097673 0.0954147
0.113863 0.119905 0.117525
0.135988 0.143252 0.140734
0.159808 0.168063 0.165454
0.185321 0.194476 0.191775
0.0838941 0.082887 0.0819867
0.10454 0.104433 0.103456
0.125994 0.12697 0.125902
0.148516 0.150866 0.14966
0.172564 0.176364 0.175006
0.19826 0.203494 0.202014
0.225818 0.232273 0.230671
0.255253 0.262684 0.26099
0.286122 0.294453 0.292668
0.160815 0.158831 0.159014
0.18587 0.184787 0.184894
0.212451 0.212451 0.212451
0.240513 0.241901 0.241764
0.27013 0.272969 0.272679
0.300984 0.305241 0.304845
0.332799 0.338277 0.337758
0.365194 0.371664 0.371023
0.397665 0.405035 0.404303
0.255055 0.25182 0.253391
0.285588 0.283253 0.284749
0.317052 0.315801 0.317174
0.348928 0.349065 0.350317
0.381018 0.382589 0.383703
0.41297 0.415976 0.416953
0.444633 0.448859 0.449714
0.476753 0.481956 0.482719
0.509224 0.515328 0.516014
0.364584 0.360037 0.363058
0.39707 0.393423 0.396368
0.429129 0.426566 0.429404
0.460685 0.45951 0.462196
0.492561 0.492836 0.495399
0.524666 0.52636 0.528786
0.556878 0.559792 0.562097
0.588998 0.592889 0.595102
0.620645 0.625452 0.627573
0.476204 0.470375 0.474815
0.508614 0.503685 0.508049
0.540993 0.537148 0.541405
0.573007 0.570535 0.57467
0.604593 0.603571 0.607553
0.635569 0.635981 0.639826
0.665873 0.667491 0.671229
0.695232 0.697841 0.701488
0.723369 0.726879 0.730419
0.588388 0.581445 0.587121
0.620188 0.61416 0.619745
0.651164 0.64622 0.651682
0.680949 0.677394 0.682734
0.709499 0.707378 0.712581
0.736736 0.736034 0.7411
0.762814 0.763348 0.768292
0.787823 0.789334 0.794186
0.811643 0.814054 0.81883
0.695171 0.687343 0.693996
0.723644 0.716731 0.723293
0.750668 0.744839 0.751293
0.776165 0.771725 0.778042
0.800351 0.797345 0.803525
0.823316 0.821744 0.827787
0.845319 0.844953 0.850874
0.866606 0.867216 0.87306
0.887251 0.888777 0.89453
0.788739 0.780102 0.787655
0.812894 0.805158 0.812619
0.835691 0.829038 0.836393
0.857206 0.851942 0.859159
0.877852 0.874037 0.881117
0.897902 0.895506 0.902449
0.917678 0.916487 0.923323
0.937377 0.937179 0.943923
0.957107 0.957809 0.964462
0.0213321 0.0209964 0.0179599
0.0411078 0.0416876 0.0385595
0.0607156 0.0623789 0.059144
0.0803693 0.0834058 0.0800488
0.100587 0.105074 0.101564
0.121736 0.127657 0.12401
0.14435 0.151492 0.147723
0.168719 0.176837 0.172976
0.194797 0.203815 0.199878
0.091249 0.0901045 0.0879683
0.112184 0.111955 0.109728
0.134035 0.134874 0.132555
0.157076 0.159304 0.156832
0.181674 0.185351 0.182742
0.20795 0.213046 0.210315
0.236088 0.242405 0.239551
0.266041 0.273335 0.27039
0.297276 0.30547 0.302434
0.169574 0.167452 0.1664
0.195193 0.193973 0.192828
0.222354 0.222217 0.220966
0.250996 0.252232 0.250858
0.281071 0.283772 0.282246
0.312245 0.316365 0.314702
0.344244 0.349584 0.347799
0.376684 0.383017 0.38114
0.409049 0.416281 0.414313
0.265721 0.262348 0.262669
0.296651 0.294194 0.294423
0.328389 0.327001 0.327138
0.360403 0.360403 0.360403
0.392477 0.393927 0.39379
0.424277 0.427161 0.426886
0.45594 0.460044 0.459632
0.488197 0.493263 0.49279
0.520699 0.52668 0.526116
0.376059 0.371374 0.373159
0.408484 0.404715 0.406409
0.440375 0.437675 0.439261
0.472053 0.470741 0.47219
0.504036 0.504173 0.505486
0.536141 0.537713 0.538888
0.568292 0.571069 0.572122
0.600244 0.604013 0.604974
0.631662 0.636332 0.637201
0.487617 0.481651 0.484855
0.520088 0.515023 0.518135
0.552453 0.54847 0.551476
0.58436 0.581765 0.584649
0.615763 0.614618 0.61735
0.646494 0.646769 0.649363
0.676432 0.677928 0.680415
0.705379 0.707851 0.710231
0.733043 0.736431 0.73872
0.59968 0.592615 0.59704
0.631281 0.625116 0.62945
0.661952 0.65687 0.661097
0.691371 0.687678 0.691768
0.719463 0.71722 0.721172
0.746258 0.745434 0.749249
0.771908 0.772305 0.775998
0.79649 0.797864 0.801465
0.819898 0.822171 0.825681
0.705425 0.697475 0.702876
0.733455 0.726406 0.731716
0.760037 0.75407 0.759274
0.785107 0.780514 0.785595
0.808865 0.805722 0.810666
0.831418 0.829709 0.834501
0.853086 0.852583 0.857267
0.874113 0.874601 0.879194
0.894591 0.895979 0.900481
0.797513 0.788754 0.795041
0.821241 0.813382 0.819593
0.843656 0.836866 0.842985
0.864881 0.85948 0.865446
0.885298 0.881346 0.887175
0.905165 0.902647 0.908339
0.924834 0.923522 0.929107
0.944503 0.944183 0.949676
0.964263 0.964828 0.97023
0.0285039 0.0280461 0.0236973
0.0482338 0.0486763 0.0442359
0.0679026 0.0694285 0.0648814
0.0877394 0.0906386 0.0859693
0.108232 0.112581 0.107774
0.129778 0.135561 0.130602
0.152911 0.159899 0.154833
0.177829 0.185809 0.180636
0.204471 0.213352 0.208103
0.0987106 0.0974289 0.0939803
0.119966 0.119585 0.11606
0.14226 0.142962 0.139315
0.165835 0.167926 0.164141
0.190997 0.194522 0.190616
0.217838 0.222797 0.218753
0.246571 0.252735 0.248585
0.276982 0.284138 0.279881
0.308537 0.316594 0.312245
0.178531 0.176272 0.173907
0.204715 0.203357 0.200916
0.232456 0.232181 0.229633
0.261646 0.26276 0.26006
0.292134 0.294697 0.291859
0.323583 0.327565 0.32459
0.355718 0.360922 0.357824
0.388159 0.394339 0.391165
0.420386 0.427466 0.424201
0.276539 0.27303 0.272053
0.307836 0.305241 0.304158
0.339788 0.338262 0.337087
0.371893 0.37174 0.370443
0.403906 0.405219 0.403769
0.435538 0.43827 0.436683
0.467323 0.471275 0.469581
0.499672 0.504601 0.5028
0.532189 0.538018 0.536141
0.387549 0.382727 0.383185
0.419867 0.415961 0.416342
0.451652 0.448814 0.449088
0.483467 0.482017 0.482155
0.515526 0.515526 0.515526
0.547616 0.549035 0.548898
0.57966 0.5823 0.58204
0.611444 0.615061 0.614725
0.642588 0.64712 0.646662
0.499077 0.492973 0.494865
0.531579 0.526375 0.528176
0.563897 0.559777 0.561471
0.595682 0.592935 0.594507
0.626871 0.625589 0.627008
0.657298 0.657435 0.658732
0.68687 0.688228 0.689403
0.715358 0.717693 0.718776
0.742596 0.74583 0.746822
0.610941 0.603723 0.606836
0.642283 0.635996 0.639002
0.672648 0.66743 0.670344
0.701656 0.69781 0.700587
0.72929 0.726894 0.729549
0.755642 0.754681 0.757183
0.780865 0.781109 0.783505
0.80502 0.806256 0.808545
0.828 0.830137 0.832349
0.715541 0.707454 0.711528
0.743114 0.735927 0.739925
0.769268 0.763149 0.767056
0.793896 0.789181 0.792935
0.817243 0.813962 0.817594
0.839414 0.837552 0.841047
0.860777 0.860136 0.863508
0.881575 0.881926 0.885191
0.901869 0.90312 0.90631
0.806165 0.797253 0.802243
0.829465 0.821469 0.826368
0.85153 0.844602 0.849409
0.87248 0.866926 0.871595
0.892683 0.888579 0.893111
0.912413 0.909743 0.914137
0.931991 0.930541 0.934813
0.951644 0.951186 0.955352
0.971435 0.971878 0.975967
0.0356603 0.0350652 0.0294194
0.055375 0.0556954 0.049958
0.0751507 0.0765393 0.0706951
0.0951858 0.0979477 0.0919814
0.115999 0.120211 0.114107
0.137972 0.143618 0.137377
0.161654 0.168505 0.162158
0.187137 0.194965 0.188525
0.214343 0.223087 0.216556
0.106264 0.104845 0.100099
0.127871 0.127352 0.12253
0.150652 0.151217 0.146288
0.174777 0.17673 0.171664
0.200504 0.203891 0.198703
0.227924 0.232746 0.227405
0.257206 0.263249 0.257801
0.288029 0.295048 0.289509
0.31986 0.327794 0.322148
0.187686 0.18529 0.181628
0.214435 0.21294 0.209201
0.242756 0.242344 0.238499
0.27245 0.273426 0.269444
0.303304 0.30573 0.30161
0.334966 0.338827 0.334569
0.367193 0.372259 0.367895
0.399588 0.405646 0.401175
0.431632 0.438575 0.434028
0.287495 0.283848 0.281575
0.319112 0.316365 0.314
0.351232 0.349584 0.347112
0.383368 0.383093 0.380499
0.41529 0.416464 0.413733
0.446799 0.449393 0.446525
0.478737 0.482567 0.479561
0.511147 0.515953 0.512871
0.543648 0.549355 0.546181
0.399008 0.394049 0.393225
0.431189 0.427146 0.42623
0.462974 0.460014 0.458991
0.494926 0.493339 0.49218
0.527001 0.526864 0.525582
0.55906 0.560342 0.558923
0.590982 0.593484 0.591943
0.622553 0.626032 0.624399
0.653407 0.657801 0.656077
0.510552 0.504311 0.504906
0.543053 0.537728 0.538231
0.575311 0.571054 0.57145
0.606928 0.604059 0.604334
0.637888 0.636454 0.636591
0.667994 0.667994 0.667994
0.697154 0.698375 0.698253
0.7252 0.727398 0.727184
0.75198 0.755077 0.754772
0.62211 0.614755 0.616587
0.653193 0.646754 0.648493
0.683207 0.677852 0.679469
0.711772 0.70779 0.709285
0.738964 0.736431 0.737789
0.764874 0.763775 0.764981
0.78967 0.789776 0.790875
0.813397 0.814496 0.815503
0.835996 0.837995 0.838926
0.72549 0.717266 0.720073
0.752621 0.745296 0.748012
0.778332 0.772091 0.774701
0.802548 0.797681 0.800168
0.825467 0.822065 0.824399
0.847288 0.845289 0.847501
0.868376 0.867597 0.869688
0.88896 0.889174 0.891157
0.909102 0.910216 0.912123
0.814664 0.805615 0.809308
0.837552 0.829419 0.833036
0.859297 0.852232 0.855756
0.879988 0.874311 0.877684
0.900008 0.895781 0.899016
0.9196 0.916808 0.919905
0.939132 0.937545 0.940536
0.958785 0.95819 0.961074
0.978653 0.978958 0.98175
0.042771 0.0420539 0.0353094
0.0625162 0.0626993 0.0558785
0.082414 0.0836805 0.0767529
0.102693 0.105348 0.0982834
0.123857 0.127962 0.12076
0.146334 0.151858 0.144518
0.17055 0.177295 0.169833
0.196597 0.204318 0.196765
0.224384 0.233021 0.225376
0.113893 0.112352 0.106523
0.135897 0.135271 0.129351
0.159197 0.159655 0.153628
0.183886 0.185718 0.179553
0.210178 0.213458 0.207156
0.238178 0.242893 0.236454
0.267979 0.273899 0.267353
0.299168 0.306065 0.299428
0.331228 0.33904 0.332296
0.196994 0.194476 0.189715
0.224308 0.222705 0.217868
0.253223 0.252689 0.247745
0.283375 0.28423 0.279149
0.314549 0.316854 0.311635
0.346395 0.350118 0.344762
0.378653 0.383597 0.378134
0.410941 0.416876 0.411307
0.442863 0.449699 0.444038
0.298543 0.294789 0.291417
0.330419 0.327565 0.324102
0.362676 0.360906 0.357336
0.394812 0.394415 0.390707
0.426581 0.427634 0.423804
0.458091 0.460578 0.456596
0.490166 0.493858 0.489769
0.522606 0.527291 0.523095
0.555077 0.560647 0.556374
0.410407 0.405325 0.403403
0.442405 0.438239 0.436225
0.474327 0.471244 0.469123
0.506371 0.504662 0.502419
0.53846 0.538201 0.535821
0.570428 0.571603 0.569085
0.602197 0.604593 0.601953
0.633539 0.636912 0.63418
0.664088 0.66836 0.665537
0.521996 0.515648 0.515145
0.554498 0.54905 0.548455
0.586633 0.582269 0.581567
0.618082 0.615091 0.614267
0.648768 0.647227 0.646265
0.678538 0.678416 0.677317
0.707256 0.70837 0.707149
0.734844 0.736934 0.735622
0.761196 0.764172 0.762783
0.633173 0.625711 0.626429
0.663966 0.657404 0.658045
0.693599 0.688121 0.68864
0.721706 0.717617 0.718013
0.748455 0.745815 0.746059
0.773922 0.772702 0.772824
0.798291 0.798291 0.798291
0.821622 0.822599 0.822507
0.843854 0.845747 0.845548
0.735271 0.726925 0.728618
0.761959 0.754513 0.75613
0.787243 0.78088 0.782391
0.811032 0.806043 0.807416
0.833539 0.830014 0.83125
0.855024 0.852918 0.854017
0.875868 0.874983 0.875959
0.896254 0.896345 0.897246
0.916274 0.917266 0.918074
0.82298 0.813825 0.816419
0.845502 0.837247 0.839765
0.866941 0.85977 0.862181
0.887404 0.881605 0.883879
0.90724 0.902907 0.905043
0.926741 0.923827 0.925826
0.946242 0.944533 0.94641
0.965927 0.965194 0.966995
0.98587 0.986053 0.987762
0.0498512 0.0490272 0.0413977
0.0696574 0.069749 0.0620279
0.0897231 0.090898 0.0830854
0.110292 0.11284 0.104891
0.131838 0.135851 0.127749
0.154833 0.160266 0.152041
0.179614 0.186252 0.177905
0.206226 0.213855 0.205402
0.234607 0.243137 0.234607
0.121614 0.119982 0.113252
0.14406 0.143328 0.136522
0.16791 0.168261 0.161349
0.193149 0.194873 0.187839
0.220005 0.223194 0.216007
0.2486 0.253208 0.245884
0.278859 0.284688 0.277241
0.310353 0.317174 0.309636
0.342611 0.350317 0.342702
0.206455 0.203861 0.198215
0.234363 0.23267 0.226932
0.263813 0.263203 0.257359
0.294377 0.29514 0.289174
0.325826 0.328038 0.32192
0.357794 0.36144 0.355184
0.390051 0.394919 0.388556
0.422202 0.428046 0.421592
0.454124 0.460868 0.454322
0.309667 0.305806 0.301549
0.341756 0.338811 0.334462
0.374105 0.372229 0.367773
0.40618 0.405692 0.401099
0.437766 0.438727 0.433997
0.469413 0.471794 0.466926
0.501564 0.50518 0.500191
0.53402 0.538613 0.533532
0.566415 0.571908 0.566751
0.421714 0.416556 0.413733
0.453605 0.449348 0.446448
0.485679 0.482506 0.4795
0.517784 0.515984 0.512856
0.549859 0.549508 0.546242
0.581735 0.582818 0.5794
0.613321 0.615625 0.612085
0.644404 0.647669 0.644053
0.674601 0.678782 0.675059
0.533425 0.52697 0.525582
0.565866 0.560327 0.558846
0.597879 0.593423 0.591836
0.629114 0.626032 0.624323
0.65951 0.657877 0.656016
0.688899 0.688685 0.686702
0.717174 0.718181 0.716075
0.74432 0.746303 0.744106
0.77023 0.773114 0.770825
0.644099 0.636545 0.636378
0.674571 0.667933 0.667674
0.703792 0.698222 0.697871
0.731456 0.727275 0.726772
0.757763 0.755032 0.754391
0.782803 0.781491 0.780713
0.806745 0.806653 0.805768
0.829648 0.830549 0.829557
0.851575 0.853361 0.852293
0.744854 0.736416 0.737224
0.771115 0.763577 0.764294
0.795956 0.789502 0.790127
0.819333 0.814252 0.81474
0.841459 0.837827 0.838178
0.862654 0.860441 0.860655
0.883253 0.882261 0.882368
0.903471 0.903471 0.903471
0.923384 0.924285 0.924208
0.831128 0.821881 0.82359
0.8533 0.844953 0.846586
0.874464 0.867201 0.868727
0.894713 0.888823 0.890211
0.914412 0.909972 0.911223
0.933837 0.930816 0.93193
0.953307 0.951507 0.952514
0.973037 0.972229 0.973129
0.993118 0.993194 0.994018
0.0569162 0.0560159 0.0475776
0.0768139 0.0768292 0.0682994
0.0971084 0.0981918 0.0895552
0.117983 0.120455 0.111681
0.139971 0.143893 0.134981
0.163516 0.168856 0.159823
0.188846 0.195407 0.186236
0.216037 0.223575 0.214313
0.244999 0.253437 0.244099
0.129458 0.127733 0.120195
0.152392 0.151583 0.143954
0.176776 0.17705 0.169314
0.202594 0.204242 0.196368
0.23003 0.233127 0.225132
0.259174 0.263706 0.255558
0.289845 0.295583 0.287327
0.32163 0.328344 0.319997
0.354009 0.361624 0.353201
0.216114 0.213413 0.206958
0.244602 0.242817 0.236271
0.274556 0.273854 0.267201
0.305486 0.306157 0.299382
0.337148 0.339269 0.332341
0.369207 0.372763 0.365698
0.401419 0.40618 0.399008
0.433387 0.439124 0.431861
0.465431 0.472084 0.464714
0.320867 0.31693 0.311849
0.35314 0.350103 0.344945
0.385504 0.383551 0.378286
0.417487 0.416907 0.411505
0.448966 0.449836 0.444297
0.480751 0.483055 0.477378
0.512978 0.516503 0.510704
0.545419 0.54992 0.54403
0.577722 0.583124 0.577142
0.432944 0.427695 0.424063
0.464866 0.460533 0.456809
0.497063 0.493797 0.489967
0.529198 0.527321 0.523369
0.561227 0.5608 0.55671
0.592981 0.593973 0.589746
0.624353 0.626566 0.622217
0.655131 0.65832 0.65388
0.684962 0.689052 0.684535
0.544839 0.538293 0.536095
0.577203 0.571572 0.569284
0.609049 0.604501 0.602106
0.640055 0.636881 0.634348
0.67013 0.668406 0.665736
0.699107 0.698802 0.695994
0.726925 0.727855 0.724926
0.753628 0.75552 0.752514
0.77911 0.781903 0.778805
0.654932 0.647288 0.646311
0.685054 0.678325 0.677241
0.713832 0.708171 0.706996
0.741054 0.736782 0.73547
0.766918 0.764096 0.762646
0.791516 0.790127 0.78854
0.815045 0.814878 0.813169
0.837568 0.838376 0.836576
0.85919 0.860899 0.859007
0.754284 0.745754 0.745754
0.780102 0.772488 0.772396
0.804532 0.797986 0.797787
0.827482 0.822324 0.821988
0.849256 0.845548 0.845075
0.870161 0.867887 0.867277
0.890562 0.889494 0.888762
0.910628 0.910552 0.909728
0.930465 0.931289 0.930373
0.839139 0.829801 0.830701
0.86099 0.852552 0.853361
0.88191 0.874556 0.875257
0.901961 0.895994 0.896559
0.921538 0.917021 0.917449
0.940902 0.937804 0.938094
0.960388 0.958495 0.958679
0.980179 0.979278 0.97937
1 1 1
