app/src/main/assets/lut/b&w.cube
#Generated with IWLTBAP LUT Generator
#Website: http://luts.iwltbap.com
TITLE "CineStill-800-T-V1.0--N125"
#LUT size
LUT_3D_SIZE 33
#LUT data points
0 0 0
0.00469978 0.00492866 0.00489815
0.00975052 0.010193 0.0101472
0.0147707 0.0154421 0.0153811
0.0197604 0.0206607 0.0205844
0.0247044 0.0258488 0.025742
0.029633 0.0310369 0.0309148
0.0345312 0.0362097 0.0360571
0.0393988 0.0413825 0.0411841
0.0442512 0.0465553 0.0463417
0.0490883 0.0517433 0.0514839
0.0539254 0.0569314 0.0566567
0.0587625 0.0621347 0.061799
0.0636301 0.0673686 0.0669871
0.068513 0.0726024 0.0722057
0.0734264 0.0778821 0.0774395
0.0783703 0.0831769 0.0827344
0.0833448 0.0885328 0.0880446
0.088365 0.0939193 0.09337
0.0934462 0.0993362 0.0988022
0.0985885 0.104829 0.104204
0.103792 0.110369 0.109712
0.109087 0.115953 0.115312
0.114427 0.12163 0.120912
0.11989 0.127352 0.12665
0.125429 0.13315 0.132433
0.131075 0.139025 0.138293
0.136812 0.145006 0.144259
0.142641 0.151095 0.150256
0.148592 0.157275 0.156405
0.154665 0.163546 0.162722
0.160815 0.169909 0.16907
0.167056 0.176394 0.175525
0.017319 0.0171206 0.0173342
0.0222934 0.0223239 0.0225223
0.0272526 0.027512 0.0276799
0.0321965 0.0326696 0.0328374
0.0371405 0.0378424 0.0379797
0.0420539 0.0429999 0.0431067
0.046952 0.0481575 0.048249
0.0518349 0.0533303 0.0533913
0.0567178 0.0585031 0.0585336
0.0616007 0.0637064 0.0637064
0.0664836 0.0689403 0.0689097
0.0713817 0.0741894 0.0741283
0.0763104 0.079469 0.0793774
0.0812695 0.0847944 0.0846571
0.0862593 0.0901503 0.0899825
0.0912947 0.095552 0.0953536
0.0963912 0.100999 0.100771
0.101534 0.106508 0.106233
0.106737 0.112078 0.111772
0.112016 0.117708 0.117357
0.117357 0.1234 0.123018
0.122805 0.129168 0.128756
0.128328 0.135012 0.134569
0.133959 0.140932 0.140475
0.139712 0.14696 0.146471
0.145556 0.153079 0.15256
0.151537 0.159304 0.158755
0.15761 0.165621 0.165057
0.16379 0.17203 0.171435
0.170077 0.178546 0.177935
0.176471 0.185168 0.184527
0.182971 0.191882 0.191226
0.189563 0.198703 0.198032
0.0347448 0.0343328 0.0347753
0.0396735 0.0394903 0.0399176
0.0446021 0.0446326 0.0450446
0.0495308 0.0497902 0.0501717
0.0544594 0.0549477 0.055314
0.0593881 0.0601358 0.0604715
0.0643168 0.0653239 0.0656443
0.0692607 0.0705425 0.0708324
0.0742199 0.0757916 0.076051
0.0791791 0.0810864 0.0813153
0.0841688 0.0864118 0.0866102
0.089189 0.091783 0.0919356
0.0942397 0.0972 0.097322
0.0993515 0.102678 0.10277
0.104509 0.108202 0.108263
0.109743 0.113787 0.113817
0.115038 0.119448 0.119432
0.120394 0.12517 0.125124
0.125841 0.130968 0.130892
0.131365 0.136858 0.136736
0.136995 0.14284 0.142687
0.142748 0.148913 0.14873
0.148592 0.155077 0.154864
0.154559 0.161334 0.161089
0.160647 0.167697 0.167422
0.166842 0.174151 0.173861
0.173144 0.180713 0.180392
0.179568 0.187366 0.18703
0.186099 0.194125 0.193774
0.192737 0.200992 0.20061
0.199481 0.207965 0.207568
0.206332 0.215045 0.214618
0.213291 0.222217 0.221775
0.0520638 0.0514534 0.0521248
0.0569924 0.056611 0.0572671
0.0619516 0.0617838 0.0624247
0.0669108 0.0669718 0.0675822
0.0719005 0.0722057 0.0727855
0.0769055 0.0774548 0.0780194
0.0819409 0.0827344 0.0832685
0.0869917 0.0880598 0.0885786
0.0920577 0.093431 0.0939193
0.0971695 0.0988632 0.099321
0.102312 0.104356 0.104768
0.1075 0.109895 0.110292
0.112749 0.115511 0.115862
0.118074 0.121202 0.121508
0.123461 0.12694 0.12723
0.128939 0.132784 0.133028
0.134493 0.138705 0.138918
0.140139 0.144717 0.144884
0.145892 0.150835 0.150973
0.151751 0.157046 0.157153
0.157717 0.163348 0.163424
0.163806 0.169757 0.169802
0.170001 0.176272 0.176287
0.176303 0.182864 0.182849
0.182727 0.189578 0.189532
0.189273 0.196384 0.196307
0.195926 0.203296 0.203204
0.202701 0.2103 0.210193
0.209583 0.217411 0.217273
0.216587 0.224643 0.224475
0.223682 0.231968 0.231785
0.2309 0.239399 0.2392
0.238224 0.246952 0.246723
0.0694743 0.0686503 0.0695506
0.074464 0.0738689 0.0747539
0.0794995 0.0791333 0.0800031
0.0845655 0.0844282 0.0852674
0.0896773 0.0897536 0.0905776
0.0948043 0.09514 0.0959335
0.0999771 0.100572 0.101335
0.105196 0.106065 0.106813
0.11046 0.11162 0.112337
0.11577 0.11725 0.117937
0.121126 0.122957 0.123598
0.126543 0.128725 0.129351
0.132052 0.1346 0.13518
0.137636 0.140551 0.1411
0.143328 0.146593 0.147112
0.149111 0.152743 0.153231
0.155001 0.158999 0.159442
0.160983 0.165347 0.165759
0.167086 0.171801 0.172183
0.173281 0.178363 0.178698
0.179583 0.185016 0.185321
0.186007 0.19176 0.192035
0.192554 0.198627 0.198871
0.199222 0.20557 0.205798
0.205997 0.212634 0.212818
0.212894 0.219791 0.219959
0.219913 0.227054 0.227207
0.227039 0.23444 0.234546
0.234287 0.241917 0.242008
0.241642 0.2495 0.249561
0.249104 0.257176 0.257221
0.256641 0.264942 0.264973
0.264271 0.272801 0.272801
0.0871748 0.0861372 0.0872816
0.0922866 0.0914778 0.092607
0.0974594 0.0968795 0.0979782
0.102678 0.102312 0.103395
0.107958 0.10782 0.108888
0.113283 0.11339 0.114427
0.118654 0.119036 0.120043
0.124102 0.124743 0.125734
0.129595 0.130541 0.131502
0.135149 0.136431 0.137346
0.140795 0.142412 0.143297
0.146532 0.148501 0.149355
0.152346 0.154681 0.155505
0.158282 0.160967 0.161761
0.164309 0.167361 0.168109
0.170428 0.173846 0.174563
0.176669 0.180438 0.181125
0.182986 0.187137 0.187778
0.189425 0.193927 0.194553
0.195972 0.200839 0.201419
0.20264 0.207843 0.208392
0.209415 0.214954 0.215473
0.216312 0.222156 0.222644
0.223331 0.22948 0.229938
0.230472 0.236896 0.237324
0.237736 0.244419 0.244831
0.245106 0.252049 0.25243
0.252598 0.25977 0.260121
0.260151 0.267567 0.267903
0.267811 0.275441 0.275761
0.275547 0.283406 0.283696
0.283345 0.291417 0.291691
0.291203 0.299519 0.299763
0.105348 0.104082 0.105486
0.110658 0.109606 0.110994
0.116014 0.11519 0.116564
0.121447 0.120851 0.122194
0.12694 0.126589 0.127901
0.132525 0.132403 0.1337
0.13817 0.138293 0.139574
0.143893 0.144305 0.145556
0.149706 0.150423 0.151629
0.155596 0.156634 0.157809
0.161578 0.162951 0.164096
0.167636 0.169375 0.170489
0.1738 0.175906 0.176989
0.180072 0.182528 0.183581
0.186435 0.189258 0.19028
0.19292 0.196094 0.19707
0.199496 0.203037 0.203983
0.20618 0.210086 0.211002
0.21297 0.217243 0.218112
0.219883 0.224506 0.225345
0.226902 0.231861 0.23267
0.234043 0.239338 0.240116
0.241306 0.246921 0.247654
0.248676 0.254582 0.255299
0.256153 0.262348 0.263035
0.263722 0.270176 0.270848
0.271397 0.278096 0.278737
0.279149 0.286076 0.286702
0.286961 0.294133 0.294728
0.294835 0.302235 0.302815
0.30277 0.310399 0.310948
0.31075 0.318608 0.319127
0.318776 0.326848 0.327367
0.124208 0.122683 0.124376
0.129747 0.12845 0.130114
0.135363 0.134279 0.135927
0.14107 0.140215 0.141833
0.146868 0.146242 0.147845
0.152758 0.152392 0.153964
0.15874 0.158618 0.160174
0.164797 0.164965 0.166491
0.170947 0.171405 0.1729
0.177188 0.177966 0.179431
0.183505 0.184634 0.186053
0.189914 0.191394 0.192798
0.196429 0.198276 0.199634
0.203052 0.205249 0.206577
0.209766 0.212345 0.213626
0.216602 0.219532 0.220783
0.223545 0.226841 0.228061
0.230579 0.234241 0.235431
0.237736 0.241764 0.242908
0.245014 0.249378 0.250507
0.252369 0.257099 0.258183
0.259846 0.264897 0.265949
0.267414 0.27277 0.273808
0.275074 0.28072 0.281727
0.282811 0.288746 0.289708
0.290623 0.296818 0.297765
0.298512 0.304952 0.305882
0.306447 0.313146 0.314031
0.314443 0.321355 0.32224
0.322484 0.329625 0.33048
0.330541 0.337911 0.33875
0.338643 0.346227 0.347036
0.346746 0.354574 0.355352
0.143954 0.142153 0.144137
0.149798 0.148226 0.150179
0.155734 0.154391 0.156329
0.161776 0.160647 0.16257
0.16791 0.167025 0.168917
0.174136 0.173495 0.175372
0.180468 0.180072 0.181918
0.186877 0.186755 0.188586
0.193362 0.193561 0.195346
0.199954 0.200458 0.202228
0.206622 0.207477 0.209201
0.213382 0.214603 0.216297
0.220264 0.221836 0.223499
0.227237 0.229175 0.230793
0.234318 0.236622 0.238209
0.24152 0.244175 0.245731
0.248814 0.251835 0.253361
0.256199 0.259586 0.261067
0.263676 0.26743 0.268879
0.271244 0.275349 0.276768
0.278889 0.28333 0.284718
0.28661 0.291386 0.292744
0.294408 0.299504 0.300816
0.302266 0.307652 0.308949
0.310201 0.315862 0.317128
0.318181 0.324102 0.325353
0.326207 0.332387 0.333608
0.334279 0.340688 0.341894
0.342367 0.34902 0.350195
0.350484 0.357366 0.358511
0.358618 0.365713 0.366857
0.366751 0.374075 0.375189
0.374884 0.382437 0.38352
0.164797 0.162707 0.165026
0.170977 0.169116 0.171405
0.177264 0.175616 0.17789
0.183642 0.182223 0.184466
0.190127 0.188937 0.191165
0.196704 0.195758 0.197955
0.203372 0.202686 0.204868
0.210132 0.209735 0.211872
0.216983 0.216876 0.218997
0.223926 0.22414 0.22623
0.230961 0.231525 0.23357
0.238087 0.239002 0.241016
0.245319 0.246601 0.248585
0.252644 0.254292 0.256245
0.260075 0.262074 0.263996
0.267582 0.269947 0.271824
0.275166 0.277897 0.279744
0.282811 0.285908 0.287724
0.290532 0.293996 0.295766
0.298329 0.302144 0.303883
0.306172 0.310323 0.312032
0.314076 0.318563 0.320241
0.322042 0.326833 0.328481
0.330037 0.335134 0.336751
0.338079 0.34345 0.345052
0.346166 0.351797 0.353368
0.354269 0.360143 0.361685
0.362387 0.368505 0.370031
0.370504 0.376867 0.378363
0.378637 0.385214 0.386694
0.386755 0.393561 0.39501
0.394858 0.401892 0.403311
0.40293 0.410193 0.411597
0.186801 0.184405 0.18706
0.193317 0.19115 0.193774
0.199954 0.198016 0.20061
0.206683 0.204974 0.207553
0.213519 0.212039 0.214603
0.220462 0.219211 0.221759
0.227481 0.226505 0.229007
0.234607 0.233906 0.236393
0.241825 0.241413 0.24387
0.249119 0.249042 0.251469
0.256504 0.256764 0.259159
0.263966 0.264576 0.266926
0.271504 0.272465 0.2748
0.279103 0.280446 0.282734
0.286793 0.288487 0.290745
0.29453 0.29659 0.298817
0.302342 0.304753 0.30695
0.310185 0.312963 0.315114
0.318074 0.321233 0.323339
0.326024 0.329519 0.331609
0.333989 0.337835 0.339895
0.342 0.346181 0.348196
0.350057 0.354543 0.356527
0.358129 0.362905 0.364874
0.366217 0.371283 0.373205
0.374319 0.379644 0.381552
0.382422 0.387991 0.389883
0.390524 0.396338 0.398199
0.398611 0.404654 0.406485
0.406668 0.412955 0.414771
0.41471 0.42121 0.423011
0.422705 0.429435 0.431205
0.430655 0.437613 0.439353
0.209995 0.207279 0.210269
0.216861 0.214374 0.21735
0.22385 0.221592 0.224552
0.230945 0.228901 0.231846
0.238148 0.236332 0.239246
0.245441 0.24387 0.246769
0.252827 0.251514 0.254383
0.260288 0.259266 0.262104
0.267826 0.267094 0.269917
0.275425 0.275013 0.27779
0.28307 0.283009 0.285756
0.290776 0.291066 0.293782
0.298543 0.299199 0.301885
0.306371 0.307378 0.310033
0.314229 0.315602 0.318212
0.322148 0.323873 0.326452
0.330083 0.332189 0.334722
0.338048 0.34052 0.343023
0.346059 0.348882 0.351354
0.35407 0.357259 0.359686
0.362112 0.365637 0.368032
0.370153 0.374014 0.376379
0.378225 0.382391 0.384726
0.386282 0.390753 0.393057
0.394354 0.3991 0.401373
0.402411 0.407416 0.409674
0.410437 0.415702 0.417929
0.418448 0.423941 0.426154
0.426429 0.432151 0.434348
0.434363 0.440314 0.442496
0.442344 0.448524 0.450675
0.45034 0.456748 0.458869
0.458381 0.465003 0.467109
0.234379 0.231342 0.234699
0.241627 0.238804 0.242145
0.248966 0.246372 0.249699
0.256413 0.254047 0.257343
0.263951 0.261814 0.265095
0.271565 0.269657 0.272923
0.279225 0.277592 0.280827
0.286961 0.285603 0.288808
0.294728 0.293675 0.296849
0.302556 0.301808 0.304952
0.310399 0.310002 0.313115
0.318288 0.318242 0.321324
0.326207 0.326543 0.32958
0.334173 0.334859 0.337865
0.342153 0.343191 0.346166
0.350149 0.351568 0.354498
0.358175 0.359945 0.362844
0.366186 0.368322 0.371191
0.374212 0.376715 0.379553
0.382239 0.385092 0.3879
0.390265 0.393469 0.396231
0.398291 0.401816 0.404547
0.406287 0.410132 0.412833
0.414282 0.418418 0.421088
0.422248 0.426657 0.429313
0.430182 0.434852 0.437476
0.438102 0.44303 0.44564
0.446082 0.451255 0.453834
0.454093 0.459495 0.462043
0.462135 0.467765 0.470298
0.470207 0.476051 0.478569
0.478294 0.484367 0.486854
0.486397 0.492699 0.495171
0.259983 0.256611 0.260334
0.267536 0.264393 0.268101
0.275196 0.272267 0.275959
0.282918 0.280217 0.283879
0.2907 0.288243 0.29189
0.298558 0.29633 0.299947
0.306432 0.304463 0.308064
0.314351 0.312673 0.316243
0.322301 0.320912 0.324453
0.330266 0.329198 0.332708
0.338247 0.33753 0.341009
0.346242 0.345876 0.349325
0.354253 0.354253 0.357656
0.36228 0.362631 0.366003
0.370291 0.371023 0.37435
0.378332 0.3794 0.382712
0.386343 0.387793 0.391058
0.394339 0.396155 0.39939
0.402319 0.404501 0.407691
0.410285 0.412818 0.415976
0.418219 0.421088 0.424231
0.426139 0.429343 0.432441
0.434028 0.437537 0.440604
0.441932 0.445731 0.448768
0.449882 0.453971 0.456977
0.457877 0.462226 0.465217
0.465904 0.470512 0.473472
0.473976 0.478813 0.481758
0.482063 0.487129 0.490043
0.490166 0.49546 0.49836
0.498299 0.503807 0.506691
0.506416 0.512169 0.515023
0.514549 0.520531 0.523354
0.286564 0.282872 0.286961
0.294392 0.290913 0.294987
0.302266 0.299016 0.303059
0.310185 0.307164 0.311192
0.318166 0.315373 0.319387
0.326177 0.323629 0.327611
0.334203 0.331914 0.335866
0.342245 0.34023 0.344167
0.350286 0.348577 0.352483
0.358328 0.356939 0.360815
0.366369 0.365316 0.369162
0.374411 0.373709 0.377508
0.382422 0.382086 0.385855
0.390433 0.390463 0.394202
0.398428 0.398825 0.402518
0.406409 0.407156 0.410834
0.414359 0.415473 0.419104
0.422263 0.423743 0.427344
0.430137 0.431983 0.435538
0.43798 0.440177 0.443702
0.445853 0.448402 0.451896
0.453788 0.456657 0.460121
0.461753 0.464942 0.468376
0.469764 0.473243 0.476646
0.477806 0.481559 0.484932
0.485878 0.489891 0.493248
0.493965 0.498238 0.501564
0.502083 0.506584 0.509896
0.510201 0.514946 0.518227
0.518334 0.523308 0.526558
0.526467 0.53167 0.534905
0.5346 0.540017 0.543221
0.542718 0.548363 0.551553
0.313924 0.309895 0.314351
0.321904 0.318105 0.322545
0.329946 0.326375 0.330785
0.338003 0.334661 0.33904
0.34609 0.342977 0.347341
0.354192 0.351324 0.355657
0.362295 0.35967 0.363989
0.370382 0.368048 0.372335
0.378454 0.37641 0.380682
0.386511 0.384787 0.389013
0.394522 0.393149 0.397345
0.402518 0.401511 0.405661
0.410483 0.409827 0.413962
0.418418 0.418128 0.422217
0.426322 0.426383 0.430442
0.434165 0.434592 0.438621
0.442023 0.442802 0.446799
0.449897 0.451041 0.455009
0.457801 0.459327 0.463249
0.465751 0.467628 0.471504
0.473732 0.475944 0.479789
0.481727 0.484276 0.488106
0.489769 0.492638 0.496422
0.497841 0.500984 0.504753
0.505913 0.509361 0.513085
0.514015 0.517723 0.521431
0.522133 0.526085 0.529763
0.530251 0.534447 0.538109
0.538369 0.542794 0.546441
0.546487 0.551125 0.554742
0.554589 0.559457 0.563058
0.562661 0.567758 0.571328
0.570733 0.576043 0.579599
0.341772 0.337423 0.342245
0.349874 0.345739 0.350545
0.357992 0.354086 0.358862
0.36611 0.362432 0.367193
0.374243 0.370794 0.375525
0.382361 0.379156 0.383871
0.390463 0.387518 0.392187
0.39852 0.395865 0.400519
0.406561 0.404196 0.40882
0.414542 0.412497 0.41709
0.422477 0.420768 0.42533
0.430365 0.429023 0.433539
0.438209 0.437217 0.441718
0.446067 0.445441 0.449897
0.453956 0.453696 0.458122
0.461875 0.461982 0.466361
0.469825 0.470283 0.474647
0.477791 0.478614 0.482933
0.485786 0.486976 0.491249
0.493797 0.495338 0.49958
0.501823 0.5037 0.507927
0.509865 0.512093 0.516274
0.517937 0.52047 0.52462
0.526009 0.528832 0.532967
0.534096 0.537209 0.541299
0.542184 0.545556 0.54963
0.550271 0.553887 0.557946
0.558358 0.562219 0.566247
0.56643 0.57052 0.574533
0.574487 0.57879 0.582773
0.582513 0.587045 0.591012
0.590494 0.59527 0.599207
0.598459 0.603449 0.60737
0.369909 0.365225 0.370398
0.378042 0.373571 0.378729
0.38616 0.381933 0.387076
0.394278 0.39028 0.395392
0.40238 0.398596 0.403693
0.410452 0.406912 0.411978
0.418463 0.415198 0.420233
0.426444 0.423438 0.428458
0.434363 0.431662 0.436652
0.442222 0.439841 0.444816
0.450111 0.448081 0.45301
0.45803 0.456352 0.461234
0.46595 0.464637 0.46949
0.473915 0.472953 0.477775
0.48188 0.4813 0.486076
0.489876 0.489647 0.494408
0.497887 0.498024 0.502739
0.505898 0.506401 0.511086
0.513924 0.514794 0.519432
0.521965 0.523171 0.527794
0.529992 0.531563 0.536141
0.538048 0.539925 0.544488
0.54609 0.548287 0.552819
0.554147 0.556634 0.56112
0.562188 0.564965 0.569421
0.57023 0.573266 0.577707
0.578241 0.581537 0.585946
0.586252 0.589776 0.594171
0.594232 0.597986 0.602365
0.602167 0.606165 0.610513
0.610086 0.614298 0.618616
0.617945 0.622385 0.626688
0.625772 0.630426 0.634714
0.398062 0.393042 0.398596
0.406149 0.401358 0.406882
0.414221 0.409659 0.415167
0.422263 0.417914 0.423392
0.430259 0.426154 0.431601
0.438193 0.434333 0.439765
0.446128 0.442527 0.447929
0.454078 0.450752 0.456123
0.462043 0.459007 0.464363
0.470008 0.467308 0.472633
0.477989 0.475624 0.480919
0.485985 0.48397 0.489235
0.49398 0.492332 0.497551
0.501991 0.50071 0.505898
0.510002 0.509087 0.514244
0.518029 0.517479 0.522591
0.526055 0.525872 0.530953
0.534081 0.534249 0.5393
0.542092 0.542626 0.547646
0.550103 0.551003 0.555978
0.558114 0.55935 0.564294
0.56611 0.567681 0.57258
0.574105 0.575982 0.580865
0.582086 0.584253 0.589105
0.590036 0.592493 0.597314
0.597986 0.600702 0.605493
0.60589 0.608865 0.613642
0.613779 0.616983 0.621729
0.621622 0.625055 0.629786
0.629419 0.633082 0.637797
0.637171 0.641062 0.645747
0.644862 0.648966 0.653635
0.652506 0.65684 0.661479
0.426001 0.420661 0.426566
0.433982 0.42887 0.434745
0.441932 0.437049 0.442893
0.449897 0.445228 0.451072
0.457893 0.453468 0.459281
0.465904 0.461723 0.467506
0.47393 0.470008 0.475776
0.481971 0.478325 0.484062
0.490013 0.486671 0.492378
0.498054 0.495033 0.500694
0.506081 0.503395 0.509041
0.514107 0.511788 0.517388
0.522133 0.520165 0.52575
0.530159 0.528557 0.534096
0.53817 0.536934 0.542443
0.546197 0.545312 0.55079
0.554192 0.553674 0.559121
0.562173 0.56202 0.567422
0.570138 0.570352 0.575723
0.578088 0.578653 0.583993
0.586023 0.586923 0.592233
0.593927 0.595178 0.600443
0.601816 0.603372 0.608606
0.609689 0.611536 0.616739
0.617517 0.619654 0.624826
0.62533 0.62771 0.632868
0.633082 0.635721 0.640864
0.640803 0.643687 0.648798
0.648478 0.651591 0.656672
0.656077 0.659419 0.664485
0.66363 0.667185 0.672236
0.671107 0.674891 0.679911
0.678508 0.682521 0.687526
0.45362 0.447974 0.454215
0.461631 0.456214 0.462425
0.469673 0.464469 0.47068
0.477729 0.47277 0.478935
0.485817 0.481071 0.487236
0.493904 0.489418 0.495537
0.501991 0.497765 0.503868
0.510079 0.506127 0.5122
0.518151 0.514488 0.520546
0.526207 0.522866 0.528893
0.534249 0.531258 0.53724
0.542275 0.539635 0.545586
0.550271 0.547997 0.553918
0.558267 0.556359 0.562249
0.566247 0.564706 0.57055
0.574212 0.573022 0.578836
0.582147 0.581323 0.587091
0.590051 0.589578 0.595331
0.597925 0.597818 0.603525
0.605768 0.606012 0.611688
0.613565 0.614176 0.619806
0.621347 0.622278 0.627894
0.629099 0.63035 0.63592
0.636805 0.638346 0.6439
0.64448 0.646296 0.65182
0.652094 0.654169 0.659678
0.659663 0.661997 0.667475
0.66717 0.669749 0.675196
0.674632 0.677424 0.682857
0.682002 0.685023 0.69044
0.689296 0.692546 0.697948
0.696513 0.699992 0.705364
0.703655 0.707347 0.712688
0.481483 0.475532 0.482109
0.48957 0.483848 0.49041
0.497673 0.492195 0.498711
0.505791 0.500526 0.507042
0.513924 0.508888 0.515373
0.522042 0.51725 0.523705
0.530144 0.525612 0.532052
0.538231 0.533974 0.540383
0.546304 0.542336 0.54873
0.55433 0.550698 0.557046
0.562341 0.559045 0.565362
0.570321 0.567376 0.573663
0.578256 0.575692 0.581933
0.586191 0.583978 0.590188
0.594079 0.592233 0.598413
0.601938 0.600458 0.606592
0.609766 0.608637 0.614755
0.617548 0.616785 0.622858
0.625284 0.624887 0.63093
0.632975 0.632929 0.638941
0.64062 0.640925 0.646906
0.648234 0.648859 0.65481
0.655802 0.656733 0.662654
0.663294 0.664546 0.67042
0.670756 0.672282 0.678126
0.678157 0.679942 0.685771
0.685481 0.687526 0.693324
0.692744 0.695018 0.700801
0.699931 0.702434 0.708186
0.707027 0.709758 0.715496
0.714046 0.716991 0.722713
0.720974 0.724163 0.729854
0.72784 0.731243 0.736904
0.509544 0.503319 0.510216
0.517678 0.511681 0.518547
0.525811 0.520043 0.526879
0.533944 0.528389 0.53521
0.542062 0.536751 0.543542
0.550164 0.545098 0.551873
0.558251 0.553429 0.560174
0.566293 0.561761 0.568475
0.574304 0.570077 0.576761
0.582284 0.578363 0.585031
0.590204 0.586633 0.593271
0.598093 0.594888 0.60148
0.605936 0.603082 0.609644
0.613748 0.611261 0.617792
0.621515 0.619394 0.625879
0.629236 0.627466 0.633921
0.636912 0.635508 0.641932
0.644526 0.643488 0.649866
0.652079 0.651408 0.657755
0.659586 0.659266 0.665583
0.667033 0.667048 0.673335
0.674434 0.674769 0.681025
0.681758 0.682414 0.68864
0.689021 0.689982 0.696178
0.696223 0.697459 0.703624
0.703349 0.704845 0.710994
0.710399 0.712154 0.718257
0.717372 0.719371 0.72546
0.724285 0.726497 0.73257
0.731106 0.733547 0.73959
0.73785 0.74052 0.746548
0.744503 0.747402 0.753399
0.75108 0.754208 0.760189
0.537682 0.531197 0.538369
0.5458 0.539544 0.5467
0.553918 0.547875 0.555016
0.56202 0.556207 0.563317
0.570092 0.564523 0.571603
0.578149 0.572808 0.579873
0.58616 0.581079 0.588113
0.594125 0.589319 0.596338
0.602045 0.597543 0.604532
0.609903 0.605722 0.61268
0.617716 0.613886 0.620798
0.625483 0.621988 0.628885
0.633173 0.63006 0.636912
0.640833 0.638071 0.644892
0.648432 0.646036 0.652811
0.65597 0.653925 0.660685
0.663432 0.661768 0.668482
0.670848 0.669535 0.676219
0.678187 0.677241 0.683879
0.68545 0.684871 0.691478
0.692653 0.692409 0.698985
0.699779 0.69987 0.706416
0.706844 0.70724 0.713756
0.713817 0.714519 0.721004
0.720745 0.721706 0.728176
0.727581 0.728817 0.735256
0.734356 0.735836 0.74226
0.74107 0.742779 0.749172
0.747692 0.749645 0.756008
0.754238 0.75642 0.762768
0.760708 0.763119 0.769436
0.767102 0.769726 0.776028
0.773419 0.776272 0.782544
0.565744 0.558999 0.566461
0.573816 0.5673 0.574731
0.581872 0.57557 0.582986
0.589883 0.583825 0.591211
0.597879 0.59205 0.59942
0.605844 0.600244 0.607599
0.613733 0.608408 0.615717
0.621576 0.616526 0.623819
0.629358 0.624613 0.631876
0.637079 0.632639 0.639887
0.644724 0.640635 0.647837
0.652308 0.648569 0.655741
0.659815 0.656443 0.663584
0.667277 0.664256 0.671366
0.674662 0.672007 0.679072
0.681971 0.679683 0.686717
0.689204 0.687282 0.694286
0.696361 0.694789 0.701762
0.703426 0.702235 0.709163
0.71043 0.709575 0.716472
0.717342 0.716838 0.723705
0.724193 0.72401 0.730846
0.730968 0.731106 0.737911
0.737667 0.738109 0.744884
0.74432 0.745037 0.751781
0.750896 0.751873 0.758587
0.757397 0.758618 0.765316
0.763821 0.765286 0.771954
0.770184 0.771878 0.778531
0.776455 0.778393 0.785016
0.782666 0.784817 0.791424
0.7888 0.791165 0.797757
0.794842 0.797452 0.803998
0.593576 0.586587 0.594308
0.601556 0.594797 0.602502
0.609506 0.602975 0.610651
0.617411 0.611109 0.618769
0.625284 0.619211 0.626841
0.633097 0.627253 0.634867
0.640833 0.635264 0.642847
0.648508 0.643214 0.650782
0.656123 0.651118 0.658656
0.663645 0.658961 0.666468
0.671092 0.666758 0.67422
0.678447 0.674479 0.68191
0.685725 0.682124 0.689525
0.692943 0.689693 0.697063
0.700069 0.697185 0.704509
0.707103 0.70457 0.711879
0.714061 0.711894 0.719158
0.720928 0.719127 0.72636
0.727718 0.726284 0.733471
0.734447 0.733364 0.74052
0.741085 0.740337 0.747463
0.747646 0.74725 0.75433
0.754162 0.75407 0.76112
0.760601 0.7608 0.767834
0.766964 0.767452 0.774456
0.773266 0.774014 0.780987
0.779507 0.780499 0.787457
0.785672 0.786908 0.793835
0.79176 0.793225 0.800137
0.797787 0.799466 0.806363
0.803723 0.805646 0.812512
0.809598 0.811734 0.818586
0.815381 0.817746 0.824582
0.621042 0.61384 0.621805
0.628885 0.621912 0.629862
0.636698 0.629938 0.637873
0.64445 0.637919 0.645823
0.65214 0.645838 0.653727
0.65977 0.653712 0.66157
0.667323 0.661524 0.669352
0.674784 0.669261 0.677073
0.68217 0.676951 0.684733
0.689464 0.68455 0.692302
0.696651 0.692088 0.699809
0.703746 0.69955 0.707225
0.71075 0.70692 0.714565
0.717678 0.714214 0.721828
0.724529 0.721416 0.729
0.731289 0.728542 0.73608
0.737972 0.735576 0.743084
0.744564 0.742535 0.750011
0.75108 0.749416 0.756863
0.757519 0.756222 0.763622
0.763897 0.762936 0.770306
0.770199 0.769558 0.776898
0.77644 0.77612 0.783429
0.782605 0.782574 0.789868
0.788708 0.788968 0.796216
0.794751 0.79527 0.802502
0.800717 0.801495 0.808698
0.806638 0.80763 0.814817
0.812467 0.813703 0.820859
