app/src/main/assets/lut/Sunset2.cube
TITLE "Generated by Resolve"
#LUT size
LUT_3D_SIZE 9
#LUT data points
0 0 0.0531472
0 0 0.0349432
0.115801 0 0.0132601
0.270604 0 0
0.424872 0 0
0.572992 0 0
0.734905 0 0
0.903334 0 0
1 0 0
0 0.0350958 0.0581216
0 0.0190738 0.0432288
0.135409 0.00355535 0.0289616
0.296971 0 0.0107424
0.456245 0 0
0.614893 0 0
0.791272 0 0
0.96698 0 0
1 0 0
0 0.110033 0.052781
0 0.100389 0.043595
0.142718 0.091249 0.035172
0.310597 0.0777905 0.0224308
0.475593 0.0653697 0.0107271
0.642298 0.056611 0.00303655
0.827253 0.0545968 0.00166323
1 0.0567178 0.00436408
1 0.0596017 0.00779736
0 0.217304 0.0419623
0 0.213764 0.0384833
0.142687 0.210269 0.0353399
0.315602 0.201724 0.0271916
0.484413 0.193271 0.0191196
0.654994 0.187411 0.0136416
0.843412 0.187304 0.013901
1 0.19057 0.0179141
1 0.194583 0.0222477
0 0.346792 0.0382696
0 0.346807 0.038056
0.143557 0.345846 0.0371557
0.318242 0.338857 0.0302892
0.488258 0.331502 0.0230716
0.660136 0.326848 0.018555
0.850599 0.328161 0.0200046
1 0.332937 0.0248875
1 0.337926 0.029984
0 0.485237 0.0372473
0 0.486351 0.0379187
0.142565 0.486641 0.0379339
0.319036 0.481147 0.0320745
0.490684 0.47512 0.0259861
0.662806 0.471199 0.0220188
0.853437 0.472663 0.0234379
1 0.477012 0.0277409
1 0.480995 0.0316625
0 0.620798 0.0442664
0 0.622705 0.0458534
0.148913 0.623346 0.0463264
0.325673 0.617655 0.040528
0.497093 0.61088 0.0336309
0.667079 0.605615 0.028275
0.855482 0.605249 0.0278019
1 0.607446 0.0298924
1 0.60911 0.0310674
0 0.74342 0.0604562
0.00593576 0.744137 0.0610208
0.16022 0.74313 0.0599069
0.33547 0.735378 0.052079
0.505302 0.726284 0.0429084
0.67187 0.718639 0.0352026
0.857099 0.715908 0.0324102
1 0.715831 0.0322576
1 0.71548 0.0318456
0 0.859098 0.0731823
0.0135195 0.857527 0.0714275
0.165682 0.8542 0.0679789
0.339132 0.84416 0.0578164
0.507591 0.832929 0.0464942
0.671046 0.823453 0.0369268
0.853513 0.819318 0.0327001
1 0.818326 0.0316167
1 0.817533 0.0307317
0 0 0.0564431
0 0 0.0372778
0.118029 0 0.0159915
0.273823 0 0
0.428687 0 0
0.577752 0 0
0.741115 0 0
0.910323 0 0
1 0 0
0 0.0385138 0.0623026
0.0011902 0.0231479 0.0479591
0.140322 0.00825513 0.0342565
0.302449 0 0.0162051
0.462196 0 0
0.62211 0 0
0.799985 0 0
0.976379 0 0
1 0 0
0 0.115633 0.0588846
0.00408942 0.10663 0.0502937
0.149905 0.0981308 0.0424659
0.318257 0.0852827 0.0302892
0.483528 0.0734264 0.0191196
0.651591 0.0651102 0.011429
0.837812 0.063447 0.0103609
1 0.0658122 0.0132906
1 0.0688334 0.0168307
0 0.22501 0.0500343
0.000289921 0.222004 0.0470436
0.15169 0.218921 0.0442817
0.324742 0.210681 0.0363928
0.493385 0.202426 0.0285191
0.665202 0.196674 0.0231174
0.854582 0.196567 0.0233463
1 0.200031 0.0271305
1 0.204242 0.031632
0 0.355779 0.0475471
0 0.355962 0.0474861
0.153231 0.355093 0.0466468
0.327764 0.348135 0.0397803
0.497612 0.341009 0.0327764
0.670909 0.336522 0.0284123
0.862486 0.337926 0.0299229
1 0.342748 0.0348516
1 0.347723 0.0399176
0 0.494575 0.0464179
0 0.495888 0.0472725
0.152743 0.49633 0.0475319
0.329107 0.490913 0.0420233
0.500404 0.484901 0.035935
0.673732 0.480949 0.0319219
0.865385 0.482322 0.0332341
1 0.486519 0.0373693
1 0.490288 0.0410468
0 0.630167 0.0538186
0.00361639 0.632044 0.055375
0.159182 0.632624 0.055787
0.335637 0.62681 0.0498512
0.506508 0.619837 0.042771
0.677485 0.614359 0.037171
0.866896 0.613748 0.0364691
1 0.615717 0.0383307
1 0.617151 0.0396582
0 0.752255 0.0697185
0.0158541 0.752758 0.0700542
0.169924 0.751522 0.0687114
0.344762 0.743526 0.0606546
0.513954 0.734188 0.0512398
0.681514 0.726329 0.0433051
0.867903 0.723369 0.0402838
1 0.723125 0.0399634
1 0.722667 0.0394446
0 0.86717 0.081651
0.0227054 0.865354 0.0796521
0.174655 0.861799 0.0759747
0.347738 0.85156 0.0656291
0.515618 0.840177 0.054139
0.680125 0.83061 0.04448
0.864103 0.826429 0.0402075
1 0.825422 0.0391241
1 0.824674 0.0382696
0 0 0.0837873
0 0 0.062974
0.118471 0 0.0434119
0.275151 0 0.020264
0.43064 0 0
0.580499 0 0
0.744961 0 0
0.914946 0 0
1 0 0
0 0.0400854 0.0906081
0.0034638 0.0253452 0.0768292
0.143267 0.0110781 0.0636759
0.306004 0 0.0462348
0.4663 0 0.0299382
0.627253 0 0.0175479
0.806302 0 0.0124514
0.983352 0 0.012253
1 0 0.0135653
0 0.119356 0.089128
0.00863661 0.111009 0.0811475
0.155077 0.10312 0.0738842
0.323949 0.0908827 0.0622873
0.48954 0.0795605 0.051606
0.658686 0.0716411 0.0442969
0.845853 0.0702983 0.0435187
1 0.0728771 0.0466316
1 0.0760052 0.050248
0 0.230823 0.0822309
0.00680552 0.22829 0.0796826
0.158602 0.225574 0.0772564
0.331792 0.217624 0.0696269
0.500328 0.209537 0.0618906
0.673106 0.203861 0.0565347
0.863188 0.2038 0.0567941
1 0.207492 0.0607767
1 0.211856 0.0654154
0 0.362768 0.0808423
0.00694286 0.363088 0.0808881
0.160708 0.362249 0.0800641
0.335225 0.355413 0.0733043
0.504936 0.348486 0.0664836
0.679377 0.344137 0.0622263
0.871778 0.345632 0.0638285
1 0.350484 0.0687572
1 0.355428 0.0737621
0 0.501915 0.0800183
0.00547799 0.503395 0.0810254
0.160769 0.50396 0.0813916
0.337041 0.498604 0.0759289
0.507988 0.492607 0.0698253
0.682338 0.488594 0.0657511
0.874678 0.489845 0.0669261
1 0.493874 0.0708629
1 0.497414 0.0743114
0 0.637552 0.0877089
0.0117037 0.639399 0.08925
0.167208 0.639902 0.0895705
0.343374 0.633936 0.0834821
0.513726 0.626764 0.076173
0.685527 0.621027 0.0703441
0.875624 0.620188 0.069398
1 0.621897 0.0710307
1 0.623072 0.0721294
0 0.759121 0.103273
0.0234836 0.759396 0.10338
0.17734 0.757916 0.101808
0.351797 0.749691 0.0935073
0.52047 0.740124 0.0838636
0.688807 0.732036 0.0756847
0.87602 0.728878 0.0724498
1 0.728481 0.0719921
1 0.727916 0.0713664
0 0.873259 0.114427
0.029633 0.871214 0.112184
0.181369 0.867414 0.108278
0.354116 0.856992 0.097734
0.521538 0.845487 0.0861219
0.686961 0.835843 0.0763714
0.872053 0.831617 0.0720684
1 0.830625 0.070985
1 0.829938 0.0701915
0 0 0.137163
0 0 0.116136
0.11693 0 0.0977188
0.274434 0 0.075288
0.430579 0 0.0538033
0.581109 0 0.0361028
0.746441 0 0.0257267
0.917189 0 0.0204013
1 0 0.0169985
0 0.0396277 0.145617
0.00363165 0.0255283 0.132326
0.144106 0.0118868 0.119753
0.307515 0 0.102953
0.468391 0 0.0873121
0.630198 0 0.0755779
0.810239 0 0.071107
0.987884 0 0.0714275
1 0 0.0731518
0 0.121065 0.146105
0.0110628 0.113344 0.138689
0.15816 0.106081 0.131975
0.327565 0.0944228 0.120912
0.493492 0.0835889 0.110689
0.663508 0.0760662 0.103746
0.851362 0.0749828 0.103243
1 0.0777295 0.106523
1 0.0809339 0.110231
0 0.234546 0.14107
0.0111391 0.232456 0.138933
0.163302 0.230106 0.136812
0.336645 0.222385 0.129381
0.505104 0.214435 0.121736
0.678584 0.208789 0.116396
0.869276 0.20885 0.116747
1 0.212757 0.120928
1 0.217273 0.125704
0 0.367575 0.140642
0.0120546 0.367987 0.140764
0.165866 0.367147 0.13991
0.340475 0.360525 0.133349
0.510109 0.35378 0.12668
0.685481 0.349569 0.12253
0.878477 0.351125 0.124178
1 0.355978 0.129091
1 0.360876 0.134035
0 0.507088 0.140139
0.0110933 0.508736 0.141268
0.166506 0.509392 0.141726
0.342702 0.504082 0.136278
0.513329 0.498054 0.130144
0.688502 0.493965 0.125963
0.881315 0.495094 0.127001
1 0.498924 0.130739
1 0.502235 0.133944
0 0.642771 0.14815
0.0174563 0.644587 0.149584
0.172885 0.644968 0.149767
0.34876 0.638834 0.143496
0.518624 0.631418 0.135958
0.691096 0.625437 0.129885
0.881666 0.624323 0.12871
1 0.625788 0.130098
1 0.626719 0.130968
0 0.763806 0.163409
0.0287327 0.763851 0.163226
0.182361 0.762127 0.161364
0.356481 0.753674 0.152789
0.524666 0.743877 0.142885
0.693645 0.735546 0.134463
0.881498 0.732204 0.131029
1 0.731685 0.130434
1 0.731044 0.129702
0 0.87715 0.173831
0.0341497 0.874876 0.171328
0.185687 0.870863 0.167163
0.35816 0.860273 0.15642
0.5252 0.848661 0.144656
0.691402 0.838941 0.134798
0.877409 0.834699 0.130419
1 0.833738 0.129351
1 0.833112 0.128603
0 0 0.217762
0 0 0.196963
0.113603 0 0.178759
0.27187 0 0.156481
0.428717 0 0.135256
0.579828 0 0.117876
0.745876 0 0.107881
0.917372 0 0.102953
1 0 0.0999313
0 0.0373541 0.229038
0.00195315 0.0238804 0.216098
0.143084 0.0108797 0.2038
0.307179 0 0.18732
0.468681 0 0.171984
0.63122 0 0.16054
0.81207 0 0.15639
0.99028 0 0.156954
1 0 0.158862
0 0.120958 0.231617
0.0116274 0.113878 0.22472
0.15935 0.107225 0.218418
0.329305 0.0961318 0.207736
0.495598 0.0857404 0.197742
0.666255 0.0785534 0.190951
0.854658 0.0777295 0.190494
1 0.0806134 0.193729
1 0.0838483 0.197314
0 0.236439 0.228336
0.0135195 0.23476 0.226612
0.166003 0.2327 0.224704
0.339513 0.225177 0.21738
0.507912 0.21735 0.209735
0.681895 0.211704 0.204288
0.873121 0.211963 0.204746
1 0.216052 0.209003
1 0.220706 0.213809
0 0.370398 0.228565
0.0151064 0.370886 0.22884
0.168978 0.370092 0.228016
0.34374 0.363714 0.221653
0.513359 0.357122 0.215106
0.689448 0.353002 0.211017
0.882887 0.354604 0.212665
1 0.359457 0.217533
1 0.364279 0.222385
0 0.510307 0.228031
0.0146639 0.512093 0.229465
0.170184 0.512825 0.23006
0.346303 0.507546 0.224674
0.51667 0.501472 0.218524
0.69247 0.497292 0.214282
0.885588 0.498268 0.215183
1 0.501869 0.218723
1 0.504952 0.221729
0 0.646052 0.235767
0.0211185 0.647791 0.237369
0.17644 0.648035 0.237568
0.352026 0.641703 0.23122
0.521416 0.634028 0.223529
0.694453 0.627787 0.217319
0.885313 0.626444 0.215976
1 0.627649 0.217227
1 0.628336 0.217945
0 0.766491 0.250019
0.0318151 0.766308 0.249882
0.185245 0.764355 0.247974
0.359014 0.755657 0.239322
0.526772 0.745632 0.229343
0.696284 0.737087 0.220829
0.884596 0.733593 0.21738
1 0.732952 0.2168
1 0.732235 0.216129
0 0.879057 0.259174
0.0365148 0.876554 0.256703
0.187884 0.872343 0.252537
0.360113 0.861601 0.24184
0.526833 0.849882 0.230152
0.693721 0.840116 0.220432
0.880446 0.835874 0.216236
1 0.834958 0.215381
1 0.834424 0.214893
0 0 0.31635
0 0 0.296208
0.109606 0 0.277607
0.268635 0 0.254856
0.4262 0 0.233219
0.577829 0 0.215564
0.744427 0 0.205631
0.916671 0 0.200855
1 0 0.198047
0 0.0344244 0.332082
0 0.021561 0.31931
0.141375 0.00923171 0.307073
0.306157 0 0.290639
0.468315 0 0.275334
0.631464 0 0.263935
0.81297 0 0.2598
0.991699 0 0.260304
1 0 0.262074
0 0.120195 0.337026
0.0114748 0.113725 0.330587
0.159823 0.107683 0.32459
0.330297 0.0971237 0.314092
0.496956 0.087129 0.304173
0.668086 0.0802625 0.297353
0.85687 0.0796368 0.296788
1 0.0826276 0.299825
1 0.0858778 0.303136
0 0.237583 0.335439
0.0150759 0.236271 0.334127
0.167849 0.234485 0.332372
0.341497 0.227146 0.325048
0.509896 0.219379 0.317311
0.68423 0.213779 0.311742
0.875914 0.214267 0.312261
1 0.218524 0.316533
1 0.22327 0.321324
0 0.372396 0.336049
0.0172274 0.372915 0.336553
0.171237 0.372244 0.335882
0.346151 0.366064 0.329702
0.515785 0.359625 0.323262
0.692409 0.355581 0.319219
0.886152 0.357214 0.320851
1 0.36202 0.325658
1 0.366751 0.330404
0 0.512718 0.335271
0.0173342 0.514611 0.337163
0.17293 0.515404 0.337957
0.348989 0.510124 0.332677
0.519127 0.504005 0.326558
0.695369 0.499702 0.322255
0.888655 0.500496 0.323049
1 0.503868 0.326436
1 0.506737 0.329305
0 0.648478 0.34229
0.0237888 0.650126 0.344305
0.178988 0.650202 0.344625
0.354314 0.643641 0.338277
0.523278 0.635721 0.330556
0.696712 0.629252 0.324285
0.887755 0.627649 0.322896
1 0.628626 0.324086
1 0.629084 0.324758
0 0.768322 0.354986
0.0338903 0.767895 0.35523
0.187091 0.765698 0.353475
0.360571 0.756786 0.344945
0.527901 0.746517 0.335012
0.697871 0.737774 0.326589
0.886534 0.734127 0.323247
1 0.733394 0.32282
1 0.732631 0.322377
0 0.880079 0.362158
0.0378729 0.877348 0.360204
0.189075 0.872969 0.356359
0.361105 0.862104 0.345968
0.527581 0.850309 0.3346
0.695048 0.840497 0.325216
0.882368 0.836271 0.321386
1 0.835401 0.320928
1 0.834974 0.320897
0 0 0.427283
0 0 0.40853
0.105226 0 0.390814
0.264988 0 0.368841
0.423331 0 0.347921
0.575418 0 0.330968
0.742412 0 0.321462
0.915373 0 0.317006
1 0 0.314473
0 0.0311131 0.445441
0 0.0188907 0.433387
0.139269 0.00721752 0.421942
0.304753 0 0.406271
0.467582 0 0.391684
0.631235 0 0.380987
0.81323 0 0.377447
0.992447 0 0.378439
1 0 0.380575
0 0.119051 0.45243
0.0108949 0.113207 0.446632
0.159854 0.107744 0.441291
0.330846 0.097673 0.431342
0.497887 0.0880598 0.421866
0.669322 0.0814679 0.415396
0.858351 0.0810101 0.415061
1 0.0840772 0.418235
1 0.0873732 0.421607
0 0.23827 0.452689
0.0161135 0.237308 0.451682
0.169146 0.235767 0.450187
0.342931 0.228565 0.44303
0.511315 0.220813 0.435355
0.685939 0.215351 0.429953
0.877974 0.216052 0.430716
1 0.220447 0.435157
1 0.225284 0.440055
0 0.373831 0.454124
0.0187076 0.37435 0.454551
0.172961 0.373892 0.454093
0.348028 0.367895 0.448081
0.517693 0.361578 0.441764
0.694697 0.357595 0.437797
0.888624 0.359243 0.439445
1 0.363989 0.44419
1 0.368612 0.448814
0 0.514595 0.45391
0.0194095 0.516594 0.455817
0.175051 0.517418 0.456611
0.351049 0.512108 0.451286
0.521004 0.505913 0.44506
0.69752 0.501488 0.440604
0.890837 0.502068 0.441184
1 0.505226 0.444327
1 0.507866 0.446937
0 0.65037 0.461219
0.025803 0.651881 0.46302
0.180865 0.651789 0.463127
0.355917 0.644999 0.456504
0.524498 0.636835 0.448524
0.698192 0.630106 0.441978
0.889326 0.628275 0.440314
1 0.629007 0.44123
1 0.629252 0.441657
0 0.769558 0.473564
0.0352483 0.768887 0.473457
0.188251 0.766476 0.471412
0.361456 0.757321 0.462562
0.528389 0.746838 0.452354
0.698711 0.737896 0.443687
0.887633 0.734127 0.440162
1 0.733303 0.439612
1 0.732509 0.439063
0 0.880537 0.480171
0.0385443 0.877592 0.477882
0.189593 0.873045 0.473793
0.361456 0.862074 0.463218
0.527733 0.850202 0.451728
0.695689 0.840375 0.442237
0.883513 0.836164 0.438376
1 0.835386 0.437919
1 0.835065 0.437919
0 0 0.530999
0 0 0.513436
0.101305 0 0.496712
0.261799 0 0.4757
0.420935 0 0.455741
0.573449 0 0.43975
0.740719 0 0.431128
0.914397 0 0.427482
1 0 0.425742
0 0.0282902 0.551064
0 0.0167086 0.539742
0.137606 0.00570687 0.529107
0.303807 0 0.514199
0.467338 0 0.500374
0.631403 0 0.49041
0.813733 0 0.487495
0.993408 0 0.489021
1 0 0.491569
0 0.118395 0.560021
0.0107576 0.113161 0.554849
0.160296 0.108263 0.550149
0.331762 0.0986191 0.540719
0.499214 0.0893568 0.531655
0.670787 0.0830091 0.52549
0.859953 0.0826886 0.525353
1 0.0858015 0.528649
1 0.0892042 0.532204
0 0.239368 0.562005
0.0174868 0.238712 0.561288
0.170718 0.237369 0.560006
0.344625 0.230259 0.552972
0.513024 0.222538 0.545342
0.687892 0.217273 0.540169
0.880186 0.218158 0.541131
1 0.222675 0.545739
1 0.227588 0.550713
0 0.375555 0.564126
0.0204929 0.37612 0.564538
0.17496 0.375891 0.564279
0.350195 0.370047 0.558419
0.519921 0.363836 0.552209
0.697124 0.359899 0.548272
0.891157 0.361517 0.549889
1 0.366201 0.554574
1 0.370687 0.55906
0 0.516793 0.564553
0.0217288 0.518868 0.56643
0.177401 0.519722 0.567178
0.353353 0.514366 0.561776
0.52314 0.50808 0.555413
0.699748 0.503487 0.55079
0.893034 0.503853 0.55111
1 0.506783 0.553994
1 0.509209 0.556359
0 0.652552 0.572091
0.0280003 0.653925 0.573632
0.182895 0.653635 0.573465
0.357687 0.646586 0.566552
0.525948 0.638178 0.558282
0.699763 0.631235 0.551461
0.890898 0.62916 0.549523
1 0.629648 0.550149
1 0.629725 0.550362
0 0.771054 0.5841
0.0367742 0.770169 0.583597
0.189563 0.767514 0.581186
0.362493 0.758129 0.57203
0.529091 0.747417 0.561517
0.699672 0.738323 0.552621
0.888762 0.734432 0.548913
1 0.733547 0.548211
1 0.732723 0.54757
0 0.881254 0.590311
0.0393835 0.878111 0.587594
0.190311 0.873411 0.583215
0.36202 0.862348 0.572427
0.528145 0.850431 0.560754
0.696529 0.840604 0.551171
0.884749 0.836439 0.54725
1 0.835737 0.546777
1 0.835569 0.546838
0 0 0.624521
0 0 0.607721
0.0982223 0 0.591608
0.259449 0 0.57113
0.41944 0 0.551766
0.57232 0 0.5364
0.739712 0 0.528435
0.914107 0 0.52549
1 0 0.524437
0 0.0263066 0.646784
0 0.0153964 0.636103
0.136767 0.00505074 0.626093
0.3037 0 0.611795
0.467948 0 0.598566
0.632319 0 0.589151
0.814862 0 0.586679
0.994949 0 0.588525
1 0 0.591287
0 0.118593 0.657847
0.011429 0.113954 0.653254
0.161501 0.109575 0.649058
0.333455 0.100359 0.640024
0.501305 0.0914015 0.631251
0.672862 0.0852522 0.625284
0.862043 0.0850233 0.625254
1 0.0881514 0.628534
1 0.0917525 0.632288
0 0.24123 0.661448
0.0195315 0.240833 0.660975
0.172946 0.239658 0.659846
0.34696 0.232624 0.652888
0.51545 0.224933 0.645274
0.690455 0.219898 0.64033
0.882902 0.220951 0.641443
1 0.225574 0.646143
1 0.230533 0.651164
0 0.37792 0.664027
0.0229496 0.378622 0.664561
0.177646 0.378592 0.6645
0.353033 0.372885 0.658778
0.52285 0.366751 0.652628
0.700099 0.362844 0.648722
0.894163 0.364431 0.650294
1 0.369024 0.654871
1 0.373358 0.659205
0 0.519677 0.664927
0.0246586 0.521798 0.666865
0.180362 0.522652 0.667613
0.356252 0.51725 0.662135
0.525887 0.510842 0.655665
0.702464 0.506081 0.650858
0.895613 0.506218 0.65095
1 0.508934 0.653605
1 0.511116 0.655741
0 0.655375 0.672435
0.0307469 0.656596 0.673823
0.185458 0.656092 0.673457
0.360006 0.648814 0.666316
0.527977 0.640162 0.657801
0.701808 0.632975 0.650752
0.892851 0.630671 0.648585
1 0.630945 0.649012
1 0.630838 0.649073
0 0.77319 0.683772
0.0388342 0.772061 0.68304
0.191394 0.769177 0.680415
0.36408 0.759564 0.671016
0.530404 0.748638 0.660319
0.701137 0.739406 0.65127
0.890333 0.735424 0.647471
1 0.734493 0.646723
1 0.733654 0.646082
0 0.882612 0.689219
0.0407721 0.879286 0.686336
0.191592 0.874464 0.681834
0.363195 0.863325 0.67097
0.529198 0.851362 0.659266
0.697932 0.84155 0.649699
0.886473 0.83743 0.645838
1 0.836851 0.645487
1 0.83682 0.645701
