app/src/main/assets/lut/Sunset2.cube
TITLE "Generated by Resolve"
#LUT size
LUT_3D_SIZE 33
#LUT data points
0 0 0.0531472
0 0 0.0495155
0 0 0.0453651
0 0 0.0398566
0 0 0.0349432
0.0183108 0 0.0299382
0.0487068 0 0.0243076
0.0811017 0 0.0189517
0.115801 0 0.0132601
0.152728 0 0.00732433
0.19144 0 0.00114443
0.230915 0 0
0.270604 0 0
0.309865 0 0
0.348638 0 0
0.387457 0 0
0.424872 0 0
0.461952 0 0
0.49752 0 0
0.534859 0 0
0.572992 0 0
0.611032 0 0
0.65005 0 0
0.691569 0 0
0.734905 0 0
0.777188 0 0
0.819165 0 0
0.861128 0 0
0.903334 0 0
0.945571 0 0
0.98819 0 0
1 0 0
1 0 0
0 0.00733959 0.0545815
0 0.00299077 0.05066
0 0 0.0455329
0 0 0.0387579
0 0 0.0334936
0.0163272 0 0.0288243
0.0483406 0 0.0246586
0.0819104 0 0.0199283
0.117449 0 0.0148623
0.155077 0 0.00946059
0.194369 0 0.00373846
0.234348 0 0
0.27451 0 0
0.314199 0 0
0.353368 0 0
0.392523 0 0
0.430243 0 0
0.467689 0 0
0.503609 0 0
0.541894 0 0
0.58056 0 0
0.619287 0 0
0.65919 0 0
0.701976 0 0
0.745693 0 0
0.788464 0 0
0.830945 0 0
0.873365 0 0
0.916045 0 0
0.95877 0 0
1 0 0
1 0 0
1 0 0
0 0.0125277 0.0564279
0 0.00805676 0.0524147
0 0.00354009 0.0478828
0 0 0.0423743
0 0 0.0378882
0.0224918 0 0.0337835
0.0551614 0 0.0297093
0.0893111 0 0.0254215
0.125383 0 0.0211795
0.1635 0 0.016144
0.203143 0 0.0107881
0.243488 0 0.00527962
0.283986 0 0
0.32401 0 0
0.3635 0 0
0.402548 0 0
0.440711 0 0
0.478325 0 0
0.515038 0 0
0.554665 0 0
0.594049 0 0
0.63386 0 0
0.675181 0 0
0.719783 0 0
0.763714 0 0
0.806958 0 0
0.849897 0 0
0.89279 0 0
0.935927 0 0
0.97908 0 0
1 0 0
1 0 0
1 0 0
0 0.0220645 0.0576486
0 0.0184329 0.0543069
0 0.0140841 0.0503243
0 0.00868238 0.0452888
0 0.00424201 0.0412146
0.0270848 0.000167849 0.0375219
0.0602274 0 0.033814
0.0948196 0 0.0298772
0.131334 0 0.0255894
0.169879 0 0.0209049
0.209857 0 0.0162966
0.250553 0 0.0111238
0.291402 0 0.00596628
0.331762 0 0.0010071
0.371588 0 0
0.410742 0 0
0.449287 0 0
0.487037 0 0
0.52491 0 0
0.565347 0 0
0.605447 0 0
0.64622 0 0
0.688884 0 0
0.734508 0 0
0.778805 0 0
0.822507 0 0
0.865888 0 0
0.909224 0 0
0.952789 0 0
0.996384 0 0
1 0 0
1 0 0
1 0 0
0 0.0350958 0.0581216
0 0.0319524 0.0552071
0 0.0280766 0.051606
0 0.0231022 0.0469368
0 0.0190738 0.0432288
0.0299077 0.0153964 0.0398718
0.0634775 0.0117342 0.0365301
0.0984817 0.00782788 0.032929
0.135409 0.00355535 0.0289616
0.174365 0 0.0246281
0.214694 0 0.0199588
0.255756 0 0.0151369
0.296971 0 0.0107424
0.337713 0 0.00613413
0.377905 0 0.00175479
0.417273 0 0
0.456245 0 0
0.49424 0 0
0.533196 0 0
0.574136 0 0
0.614893 0 0
0.656504 0 0
0.700389 0 0
0.746532 0 0
0.791272 0 0
0.835401 0 0
0.879225 0 0
0.922988 0 0
0.96698 0 0
1 0 0
1 0 0
1 0 0
1 0 0
0 0.0505837 0.0578927
0 0.0478523 0.055314
0 0.0443732 0.0520638
0 0.0397955 0.0477455
0 0.0361639 0.0443732
0.0316777 0.0328679 0.0413519
0.0656443 0.0295872 0.0383459
0.101061 0.0260624 0.0350958
0.138384 0.0221866 0.0314794
0.177752 0.0179294 0.0274968
0.218463 0.0133516 0.0231937
0.259937 0.00865187 0.0187533
0.301549 0.00396735 0.0143282
0.342672 0 0.0102541
0.383261 0 0.0065156
0.422889 0 0.00254826
0.462257 0 0
0.500526 0 0
0.540413 0 0
0.581827 0 0
0.623194 0 0
0.665553 0 0
0.710506 0 0
0.757046 0 0
0.802213 0 0
0.846769 0 0
0.891005 0 0
0.935164 0 0
0.979553 0 0
1 0 0
1 0 0
1 0 0
1 0 0
0 0.0682994 0.0568551
0 0.0659495 0.0546273
0 0.0628519 0.0517128
0 0.0586557 0.0477302
0 0.0554055 0.0447089
0.032517 0.0525063 0.0420386
0.0669108 0.0496223 0.0393988
0.102754 0.0465095 0.0365148
0.140505 0.0430457 0.0332799
0.180301 0.0392004 0.0296941
0.221408 0.03505 0.0257572
0.263279 0.0307469 0.0216831
0.305272 0.0264744 0.0176394
0.346792 0.022385 0.0137942
0.387762 0.0185092 0.0101472
0.42768 0.0147097 0.00695811
0.46743 0.0110323 0.00350958
0.50602 0.00758373 0.000289921
0.546685 0.00445563 0
0.588556 0.00173953 0
0.630472 0 0
0.673518 0 0
0.719402 0 0
0.766293 0 0
0.811856 0 0
0.856779 0 0
0.901366 0 0
0.945861 0 0
0.990555 0 0
1 0 0
1 0 0
1 0 0
1 0 0
0 0.0881208 0.0551003
0 0.0861524 0.0532235
0 0.0834669 0.05066
0 0.0796674 0.0470436
0 0.0768139 0.0444038
0.0326543 0.074342 0.0421149
0.0674754 0.07187 0.0398566
0.103746 0.0691691 0.0373541
0.141924 0.0661021 0.0345006
0.182116 0.0626535 0.0312657
0.223636 0.0588998 0.0277104
0.265888 0.0549935 0.0240024
0.308263 0.0511025 0.020325
0.350164 0.0474098 0.0168307
0.391501 0.0439307 0.01355
0.431724 0.0404974 0.0103151
0.471839 0.0371862 0.00720226
0.510765 0.0341192 0.00474556
0.552102 0.0313726 0.00218204
0.594415 0.0290227 1.5259e-05
0.636866 0.0271458 0
0.680507 0.025742 0
0.727153 0.0247807 0
0.774319 0.0242771 0
0.820203 0.0241245 0
0.865446 0.0242618 0
0.910323 0.0245823 0
0.955093 0.0250248 0
1 0.0254978 0
1 0.0260624 0
1 0.0266117 0
1 0.0272221 0.000244144
1 0.0278782 0.00105287
0 0.110033 0.052781
0 0.108492 0.0512703
0 0.106203 0.0491035
0 0.102831 0.0458686
0 0.100389 0.043595
0.0322271 0.0983139 0.0416876
0.0674601 0.0962387 0.0397955
0.104128 0.0939193 0.0376593
0.142718 0.091249 0.035172
0.183307 0.0882124 0.0323033
0.225208 0.0848249 0.0291142
0.267842 0.0813001 0.0257572
0.310597 0.0777905 0.0224308
0.352865 0.0744793 0.0193027
0.394568 0.0713664 0.0163577
0.435111 0.0683146 0.0134737
0.475593 0.0653697 0.0107271
0.514839 0.0626535 0.00817884
0.556741 0.0602426 0.0061799
0.59942 0.0581979 0.00445563
0.642298 0.056611 0.00303655
0.686442 0.0554818 0.00205997
0.733715 0.0547799 0.0015259
0.781094 0.0545205 0.00141909
0.827253 0.0545968 0.00166323
0.872755 0.0549325 0.00215152
0.917876 0.0554665 0.00282292
0.96286 0.0560769 0.00358587
1 0.0567178 0.00436408
1 0.057435 0.00521859
1 0.0581216 0.00604257
1 0.0588388 0.00691234
1 0.0596017 0.00779736
0 0.134066 0.0500496
0 0.132921 0.0489204
0 0.131044 0.0471199
0 0.128054 0.0442664
0 0.126024 0.042359
0.0312657 0.124331 0.0408179
0.0668956 0.122652 0.0392767
0.103975 0.120729 0.0375067
0.142947 0.118425 0.0353704
0.183932 0.115755 0.0328527
0.226215 0.112764 0.0300145
0.26923 0.109606 0.0270237
0.312352 0.106477 0.0240482
0.354986 0.103517 0.0212406
0.397024 0.100755 0.0186313
0.437827 0.0980087 0.0160525
0.478614 0.0953841 0.0135653
0.518151 0.0929427 0.0112917
0.560479 0.0908064 0.00929274
0.603479 0.0890059 0.00764477
0.646708 0.0876631 0.0068513
0.691264 0.0867475 0.00608835
0.739025 0.0862745 0.00573739
0.786603 0.0861982 0.00579843
0.832959 0.0864424 0.00619516
0.87866 0.0869459 0.00682078
0.923949 0.087602 0.00762951
0.969116 0.0883497 0.00849927
1 0.0891127 0.0093843
1 0.0899214 0.0103151
1 0.0906844 0.0112001
1 0.0914778 0.0121157
1 0.0922713 0.0130312
0 0.160067 0.0471504
0 0.159319 0.0463874
0 0.157824 0.0449531
0 0.15523 0.0424353
0 0.153567 0.0408942
0.030045 0.15227 0.039704
0.0660563 0.150958 0.038529
0.103517 0.149416 0.0371099
0.142885 0.147494 0.0353246
0.184253 0.14519 0.0331579
0.226886 0.142535 0.0306554
0.270237 0.139727 0.0279698
0.31368 0.136904 0.0252842
0.356603 0.134249 0.0227512
0.398917 0.131762 0.0204166
0.439979 0.12929 0.0180667
0.480995 0.126909 0.0158236
0.52076 0.124712 0.0137636
0.563439 0.122774 0.0119631
0.606683 0.121187 0.0104982
0.650187 0.120027 0.00946059
0.695064 0.11928 0.00888075
0.743206 0.118944 0.00903334
0.790921 0.119005 0.00921645
0.837446 0.119387 0.00972
0.883284 0.119982 0.0104372
0.92871 0.120745 0.0113069
0.973983 0.121569 0.0122377
1 0.122377 0.0131685
1 0.123232 0.0141299
1 0.124025 0.0150301
1 0.124819 0.0159457
1 0.125628 0.016846
0 0.187869 0.044358
0 0.187503 0.043946
0 0.186389 0.0428626
0 0.184161 0.0407111
0 0.182879 0.0395209
0.0288396 0.181949 0.0386816
0.0652323 0.181003 0.0378424
0.103044 0.179797 0.036759
0.142748 0.17821 0.0352789
0.184436 0.176226 0.033402
0.227375 0.173861 0.0311589
0.271 0.171313 0.0287327
0.314717 0.168765 0.0262913
0.357885 0.166339 0.0239872
0.400427 0.16408 0.0218357
0.441672 0.161822 0.0196994
0.482872 0.159625 0.0176242
0.522835 0.15761 0.0157168
0.565759 0.15584 0.0140688
0.609186 0.154391 0.012726
0.652903 0.153368 0.0118105
0.698024 0.152743 0.0112917
0.746441 0.152514 0.0111696
0.794232 0.152651 0.0115663
0.840879 0.153094 0.0123751
0.886793 0.15375 0.013138
0.932296 0.154543 0.014023
0.97763 0.155383 0.0149691
1 0.156207 0.0158846
1 0.157061 0.0168307
1 0.157885 0.0177462
1 0.15877 0.0187228
1 0.159701 0.0197299
0 0.217304 0.0419623
0 0.217319 0.0419165
0 0.216571 0.0411841
0 0.21471 0.0393683
0 0.213764 0.0384833
0.0278782 0.213153 0.0379492
0.0645914 0.212512 0.0373846
0.102693 0.211597 0.0365606
0.142687 0.210269 0.0353399
0.184634 0.20853 0.0336919
0.227817 0.206409 0.0316777
0.271672 0.204089 0.0294499
0.315602 0.201724 0.0271916
0.358968 0.199496 0.0250553
0.401679 0.197421 0.0230716
0.443076 0.195315 0.0210575
0.484413 0.193271 0.0191196
0.524498 0.191379 0.017319
0.56759 0.189715 0.0157626
0.611139 0.188357 0.0144961
0.654994 0.187411 0.0136416
0.700267 0.186847 0.0131685
0.748882 0.186664 0.013077
0.796719 0.186831 0.0133516
0.843412 0.187304 0.013901
0.889372 0.187961 0.0148318
0.934905 0.188754 0.0159304
0.980316 0.189639 0.016907
1 0.19057 0.0179141
1 0.191546 0.0189822
1 0.192523 0.0200198
1 0.19353 0.0211185
1 0.194583 0.0222477
0 0.248157 0.0402533
0 0.248493 0.0404974
0 0.248066 0.0400702
0 0.246494 0.038529
0 0.245838 0.0379034
0.0272831 0.245487 0.0376135
0.0642405 0.24509 0.0372778
0.102602 0.244404 0.0366674
0.142794 0.243305 0.0356298
0.184955 0.241764 0.034165
0.228351 0.239826 0.0323186
0.272389 0.237659 0.0302434
0.316472 0.235462 0.0281224
0.359976 0.233371 0.0261082
0.402808 0.231403 0.0242161
0.444312 0.229404 0.0223087
0.485725 0.227451 0.0204166
0.525887 0.225635 0.0186923
0.569085 0.224033 0.0171664
0.612696 0.222721 0.0159457
0.656611 0.221805 0.0150912
0.701976 0.221256 0.0146181
0.750683 0.221057 0.0145113
0.798566 0.221256 0.0147707
0.84535 0.22179 0.0153811
0.891463 0.222568 0.0162203
0.937163 0.223514 0.0172427
0.982757 0.224537 0.0184634
1 0.225589 0.019852
1 0.226703 0.0210422
1 0.227787 0.0221866
1 0.228901 0.0233616
1 0.230045 0.024567
0 0.280079 0.0393225
0 0.28069 0.039826
0 0.280522 0.0396277
0 0.279194 0.0383001
0 0.278752 0.0379034
0.0271763 0.278614 0.0377966
0.064332 0.278416 0.037644
0.102861 0.277897 0.0371862
0.143236 0.276967 0.0363012
0.18555 0.275563 0.0349584
0.229099 0.273762 0.0332189
0.273259 0.271717 0.0312352
0.317449 0.269612 0.0291905
0.361044 0.267597 0.0272526
0.403952 0.265705 0.0254215
0.445518 0.263767 0.0235294
0.486976 0.261845 0.0216831
0.527153 0.260044 0.0199435
0.570352 0.258457 0.0184176
0.613977 0.257145 0.0171817
0.657969 0.25626 0.0163424
0.703456 0.255787 0.0159457
0.752377 0.255726 0.0159457
0.800427 0.256077 0.0163577
0.847379 0.256748 0.0170748
0.893645 0.257633 0.0180362
0.939498 0.258701 0.0191501
0.985229 0.259846 0.0203403
1 0.26099 0.0215457
1 0.262196 0.022797
1 0.263355 0.0242161
1 0.264546 0.0256504
1 0.265751 0.0269017
0 0.312993 0.0387732
0 0.313832 0.0394751
0 0.313848 0.0394598
0 0.312718 0.0383154
0 0.312444 0.038056
0.0271458 0.312459 0.0380865
0.0644541 0.312398 0.038056
0.10312 0.312016 0.037705
0.143603 0.311177 0.0369116
0.186023 0.30988 0.0356603
0.229664 0.308156 0.0339818
0.273899 0.306172 0.0320439
0.318151 0.304128 0.0300298
0.361776 0.302144 0.0281071
0.404715 0.300252 0.026276
0.446296 0.298314 0.0243687
0.48777 0.296407 0.0225071
0.527993 0.294652 0.0208133
0.571283 0.293156 0.019379
0.615045 0.291997 0.018265
0.65919 0.291249 0.0175631
0.704845 0.290913 0.0172732
0.753933 0.29099 0.0173953
0.802121 0.291447 0.0178836
0.84921 0.29221 0.0187076
0.895598 0.293202 0.0197452
0.941573 0.294362 0.0209354
0.987411 0.295583 0.0222019
1 0.296788 0.0234531
1 0.298054 0.0247501
1 0.29926 0.0260014
1 0.300496 0.0272679
1 0.301732 0.0285344
0 0.346792 0.0382696
0 0.347784 0.0391241
0 0.347951 0.0392309
0 0.346944 0.0382086
0 0.346807 0.038056
0.0268559 0.346914 0.0381628
0.0642557 0.346944 0.0382086
0.103014 0.346639 0.0379187
0.143557 0.345846 0.0371557
0.186023 0.344594 0.0359197
0.229709 0.342885 0.0342565
0.273976 0.340917 0.0323186
0.318242 0.338857 0.0302892
0.361898 0.336904 0.0283665
0.404913 0.335088 0.0265965
0.446647 0.333257 0.0247959
0.488258 0.331502 0.0230716
0.528618 0.3299 0.0215
0.572 0.328527 0.0201724
0.615885 0.327489 0.0191653
0.660136 0.326848 0.018555
0.705913 0.326619 0.0183566
0.755108 0.326772 0.018555
0.803403 0.327321 0.0191196
0.850599 0.328161 0.0200046
0.897078 0.329213 0.021088
0.943145 0.330419 0.0223239
0.989059 0.331685 0.023621
1 0.332937 0.0248875
1 0.334218 0.026215
1 0.335454 0.0274662
1 0.33669 0.0287327
1 0.337926 0.029984
0 0.381186 0.0377966
0 0.382284 0.0387579
0 0.382559 0.0389563
0 0.381628 0.0379797
0 0.381552 0.0378882
0.0263218 0.38172 0.0380407
0.0637827 0.381781 0.0381018
0.102556 0.381491 0.0378119
0.143099 0.380713 0.0370489
0.185595 0.379446 0.0357977
0.229343 0.377783 0.0341497
0.273716 0.375906 0.0322881
0.31812 0.373983 0.0303807
0.361944 0.372168 0.0285801
0.405112 0.370489 0.0269322
0.446983 0.36878 0.0252384
0.488716 0.367132 0.023621
0.529168 0.365637 0.0221408
0.572595 0.36437 0.0209049
0.616571 0.363409 0.0199588
0.660899 0.36286 0.0194247
0.706722 0.362692 0.0192874
0.755993 0.362905 0.0195315
0.804364 0.3635 0.0201419
0.851637 0.364385 0.0210422
0.898177 0.365484 0.0221561
0.944289 0.366705 0.0234073
0.990234 0.367987 0.0247044
1 0.369238 0.0259709
1 0.370535 0.0272679
1 0.37174 0.0285039
1 0.372961 0.0297246
1 0.374166 0.0309453
0 0.415808 0.0373846
0 0.416968 0.0383917
0 0.417273 0.0386053
0 0.416373 0.0376593
0 0.416297 0.0375525
0.0255741 0.416464 0.0376898
0.063035 0.416541 0.0377508
0.101869 0.416297 0.0375067
0.142535 0.415625 0.0368353
0.185183 0.414511 0.0357061
0.229099 0.412985 0.0341955
0.27361 0.411231 0.0324407
0.318151 0.40943 0.0306554
0.362112 0.407721 0.0289616
0.405386 0.406165 0.0273899
0.447395 0.404547 0.0257877
0.489219 0.402991 0.0242313
0.529747 0.401556 0.0228275
0.573159 0.400366 0.0216373
0.617182 0.399466 0.020737
0.661524 0.398947 0.0202335
0.707378 0.398825 0.0201267
0.756649 0.399084 0.0203861
0.805081 0.399695 0.0210117
0.852384 0.40058 0.021912
0.89897 0.401679 0.0230106
0.945098 0.402899 0.0242466
0.991058 0.404166 0.0255131
1 0.405386 0.0267491
1 0.406653 0.0280003
1 0.407813 0.0291905
1 0.408988 0.0303502
1 0.410132 0.0314946
0 0.450477 0.0374456
0 0.451637 0.0384375
0 0.451942 0.0383307
0 0.451072 0.0373083
0 0.451072 0.0372625
0.0249332 0.451347 0.0375067
0.0625467 0.45156 0.0376898
0.101534 0.451469 0.0375677
0.142321 0.450919 0.0370031
0.185092 0.449928 0.035996
0.229145 0.448508 0.0345769
0.273793 0.44686 0.0329137
0.318441 0.445136 0.0311894
0.362478 0.443519 0.029572
0.405859 0.442023 0.0280613
0.447974 0.440467 0.0265049
0.48986 0.438956 0.0249943
0.530419 0.437583 0.023621
0.57377 0.436408 0.022446
0.617807 0.435538 0.0215763
0.662135 0.43505 0.021088
0.707942 0.434928 0.0209659
0.757183 0.435172 0.02121
0.805646 0.435782 0.0218204
0.852964 0.436652 0.0226902
0.899535 0.43772 0.023743
0.945663 0.438911 0.0249332
0.991608 0.440116 0.0261387
1 0.441291 0.0273136
1 0.442481 0.0284886
1 0.44358 0.0295872
1 0.444663 0.0306706
1 0.445716 0.0317082
0 0.485237 0.0372473
0 0.486488 0.0383307
0 0.486946 0.0386511
0 0.486213 0.0378424
0 0.486351 0.0379187
0.0248264 0.486763 0.0382849
0.062562 0.487083 0.0385595
0.101656 0.487083 0.0385443
0.142565 0.486641 0.0379339
0.185412 0.485725 0.0368658
0.229587 0.484398 0.0354009
0.274311 0.482811 0.033753
0.319036 0.481147 0.0320745
0.363165 0.479576 0.0304875
0.406577 0.478126 0.0290227
0.448783 0.4766 0.0274815
0.490684 0.47512 0.0259861
0.531273 0.473747 0.0246128
0.574517 0.472587 0.0234379
0.618524 0.471702 0.0225376
0.662806 0.471199 0.0220188
0.708537 0.471061 0.0218814
0.757687 0.471275 0.0220798
0.806149 0.471839 0.0226291
0.853437 0.472663 0.0234379
0.899977 0.473671 0.0244297
0.946059 0.474784 0.0255436
0.991943 0.475929 0.0266728
1 0.477012 0.0277409
1 0.478111 0.028809
1 0.479103 0.0298009
1 0.480064 0.0307469
1 0.480995 0.0316625
0 0.520165 0.0377661
0 0.521523 0.0389563
0 0.522072 0.0393835
0 0.521447 0.0386816
0 0.52166 0.0388342
0.02533 0.522164 0.0392767
0.0631571 0.52256 0.0396429
0.102327 0.522637 0.0396735
0.143297 0.52224 0.0392462
0.186221 0.52137 0.0383612
0.230472 0.520088 0.0370336
0.275257 0.518532 0.0354467
0.320043 0.516899 0.0337987
0.364187 0.515343 0.0322271
0.40763 0.513893 0.0307469
0.449897 0.512367 0.0292058
0.491798 0.510872 0.0276799
0.532372 0.509483 0.0262608
0.575463 0.508293 0.0249332
0.619425 0.507362 0.0238956
0.6636 0.506813 0.0232242
0.709209 0.506615 0.0229343
0.758206 0.506767 0.0230716
0.806653 0.507256 0.0235294
0.85388 0.507988 0.0242618
0.900359 0.508919 0.0251621
0.946365 0.509926 0.026154
0.992172 0.510948 0.0271611
1 0.51191 0.0281071
1 0.512871 0.0290379
1 0.513726 0.0298772
1 0.514549 0.0306706
1 0.515328 0.0314336
0 0.554345 0.0391546
0 0.555764 0.0404212
0 0.55639 0.04094
0 0.55581 0.0402991
0 0.5561 0.0405127
0.0265202 0.556634 0.041001
0.0644236 0.557076 0.0413977
0.103639 0.557183 0.041474
0.144656 0.556817 0.041062
0.18761 0.555962 0.0401923
0.231907 0.554681 0.0388647
0.276722 0.553124 0.0372778
0.321523 0.551476 0.0356146
0.365682 0.549905 0.0340124
0.409125 0.548424 0.0325017
0.451408 0.546868 0.03093
0.493278 0.545327 0.0293584
0.533822 0.543877 0.0278935
0.576699 0.542626 0.0266117
0.620569 0.541634 0.0256046
0.664622 0.540993 0.0249485
0.710063 0.540719 0.0246433
0.758877 0.540764 0.0246738
0.807263 0.541146 0.0250248
0.854414 0.541772 0.0254673
0.900786 0.54255 0.0260777
0.946685 0.54342 0.0268406
0.992386 0.544305 0.0276951
1 0.545129 0.0284886
1 0.545937 0.0292821
1 0.546639 0.0299687
1 0.547326 0.0306249
1 0.547967 0.0312352
0 0.587869 0.0413519
0 0.589334 0.0426795
0 0.589975 0.0432441
0 0.589441 0.0426337
0 0.589746 0.0428779
0.0283665 0.590311 0.0433967
0.0662852 0.590753 0.0438087
0.105531 0.59086 0.0438697
0.146563 0.590494 0.0434577
0.189502 0.589624 0.0425574
0.233829 0.588312 0.0412146
0.278645 0.586725 0.0395972
0.32343 0.585046 0.0378882
0.367575 0.583413 0.0362402
0.410986 0.581872 0.0346685
0.453285 0.580255 0.0330205
0.495079 0.578622 0.0313726
0.535561 0.577096 0.0298161
0.578195 0.575753 0.0284428
0.621942 0.574655 0.0273289
0.665812 0.573907 0.026566
0.71104 0.573495 0.0261234
0.759609 0.573419 0.0260166
0.807919 0.573648 0.0262303
0.854948 0.574121 0.026688
0.901198 0.574762 0.0272984
0.94699 0.575479 0.0280003
0.992569 0.576226 0.0286412
1 0.576898 0.0290837
1 0.577569 0.0296025
1 0.578119 0.0301366
1 0.578653 0.0306401
1 0.579156 0.0311131
0 0.620798 0.0442664
0 0.622278 0.0456245
0 0.622934 0.0462043
0 0.6224 0.0456092
0 0.622705 0.0458534
0.0307622 0.623255 0.0463569
0.0686809 0.623682 0.0467384
0.107912 0.623758 0.0467842
0.148913 0.623346 0.0463264
0.191821 0.622431 0.0453956
0.236133 0.621073 0.0439918
0.280919 0.619425 0.0423133
0.325673 0.617655 0.040528
0.369772 0.615961 0.0387884
0.413123 0.614328 0.0371252
0.455406 0.612604 0.0353857
0.497093 0.61088 0.0336309
0.537514 0.609232 0.0319524
0.579812 0.607752 0.030457
0.623407 0.606516 0.0291905
0.667079 0.605615 0.028275
0.712047 0.605066 0.0276951
0.760342 0.604837 0.0274357
0.80856 0.604929 0.0274968
0.855482 0.605249 0.0278019
0.901625 0.605737 0.028275
0.947311 0.606332 0.0288243
0.992767 0.606912 0.0294041
1 0.607446 0.0298924
1 0.607965 0.030396
1 0.608392 0.0306249
1 0.608774 0.0307317
1 0.60911 0.0310674
0 0.652796 0.0478065
0 0.654169 0.0491646
0 0.654765 0.0497292
0 0.654169 0.0491035
0 0.654398 0.0493172
0.0336004 0.654856 0.0497749
0.0714885 0.655222 0.0501259
0.110674 0.655207 0.0500954
0.151629 0.654704 0.0495766
0.194461 0.653681 0.0485695
0.238758 0.652216 0.0470741
0.283482 0.650446 0.045304
0.328161 0.648569 0.0434119
0.372168 0.646723 0.0415656
0.415427 0.644953 0.0397803
0.457664 0.643076 0.0379034
0.499229 0.641184 0.035996
0.539544 0.639368 0.0341802
0.581491 0.63772 0.0325322
0.624918 0.636316 0.0311284
0.668376 0.635264 0.0300603
0.7131 0.634546 0.0293278
0.761074 0.63415 0.0289311
0.809232 0.634058 0.0288396
0.856031 0.634241 0.0290074
0.902068 0.634562 0.0293278
0.947616 0.634974 0.0297398
0.992966 0.635401 0.0301518
1 0.635767 0.0305028
1 0.636118 0.0308537
1 0.636378 0.0311131
1 0.636606 0.0313268
1 0.63679 0.0313726
0 0.683162 0.0518502
0 0.68452 0.0531624
0 0.685084 0.0536812
0 0.684428 0.0530098
0 0.684611 0.0531624
0.0367742 0.685023 0.0535592
0.0745861 0.685313 0.0538186
0.11371 0.685222 0.0537118
0.154574 0.684627 0.0530861
0.197314 0.683513 0.0519722
0.241535 0.681941 0.05037
0.286168 0.680049 0.0484627
0.330755 0.678035 0.0464332
0.374655 0.676066 0.0444495
0.417792 0.674144 0.0425116
0.459983 0.672129 0.0404822
0.501396 0.6701 0.0384375
0.541634 0.668132 0.0364691
0.5832 0.666346 0.0346685
0.626459 0.66482 0.0331121
0.669703 0.663615 0.0319066
0.714153 0.662745 0.0310216
0.761807 0.662211 0.0304723
0.809888 0.661997 0.0302434
0.856565 0.662028 0.0302586
0.902495 0.662211 0.0304417
0.947936 0.662486 0.0307012
0.993164 0.662776 0.0309758
1 0.663005 0.0311894
1 0.663233 0.0313878
1 0.66334 0.0314946
1 0.663432 0.0315709
1 0.663478 0.0316014
0 0.713466 0.0561532
0 0.714763 0.0574044
0 0.715251 0.057847
0 0.714519 0.057084
0.00273136 0.714611 0.057145
0.0400244 0.714931 0.057435
0.0777447 0.715099 0.0575875
0.116762 0.7149 0.0573587
0.157519 0.714168 0.056611
