app/src/main/assets/lut/Sunset2.cube
TITLE "Generated by Resolve"
#LUT size
LUT_3D_SIZE 5
#LUT data points
0 0 0.0531472
0.115801 0 0.0132601
0.424872 0 0
0.734905 0 0
1 0 0
0 0.110033 0.052781
0.142718 0.091249 0.035172
0.475593 0.0653697 0.0107271
0.827253 0.0545968 0.00166323
1 0.0596017 0.00779736
0 0.346792 0.0382696
0.143557 0.345846 0.0371557
0.488258 0.331502 0.0230716
0.850599 0.328161 0.0200046
1 0.337926 0.029984
0 0.620798 0.0442664
0.148913 0.623346 0.0463264
0.497093 0.61088 0.0336309
0.855482 0.605249 0.0278019
1 0.60911 0.0310674
0 0.859098 0.0731823
0.165682 0.8542 0.0679789
0.507591 0.832929 0.0464942
0.853513 0.819318 0.0327001
1 0.817533 0.0307317
0 0 0.0837873
0.118471 0 0.0434119
0.43064 0 0
0.744961 0 0
1 0 0
0 0.119356 0.089128
0.155077 0.10312 0.0738842
0.48954 0.0795605 0.051606
0.845853 0.0702983 0.0435187
1 0.0760052 0.050248
0 0.362768 0.0808423
0.160708 0.362249 0.0800641
0.504936 0.348486 0.0664836
0.871778 0.345632 0.0638285
1 0.355428 0.0737621
0 0.637552 0.0877089
0.167208 0.639902 0.0895705
0.513726 0.626764 0.076173
0.875624 0.620188 0.069398
1 0.623072 0.0721294
0 0.873259 0.114427
0.181369 0.867414 0.108278
0.521538 0.845487 0.0861219
0.872053 0.831617 0.0720684
1 0.829938 0.0701915
0 0 0.217762
0.113603 0 0.178759
0.428717 0 0.135256
0.745876 0 0.107881
1 0 0.0999313
0 0.120958 0.231617
0.15935 0.107225 0.218418
0.495598 0.0857404 0.197742
0.854658 0.0777295 0.190494
1 0.0838483 0.197314
0 0.370398 0.228565
0.168978 0.370092 0.228016
0.513359 0.357122 0.215106
0.882887 0.354604 0.212665
1 0.364279 0.222385
0 0.646052 0.235767
0.17644 0.648035 0.237568
0.521416 0.634028 0.223529
0.885313 0.626444 0.215976
1 0.628336 0.217945
0 0.879057 0.259174
0.187884 0.872343 0.252537
0.526833 0.849882 0.230152
0.880446 0.835874 0.216236
1 0.834424 0.214893
0 0 0.427283
0.105226 0 0.390814
0.423331 0 0.347921
0.742412 0 0.321462
1 0 0.314473
0 0.119051 0.45243
0.159854 0.107744 0.441291
0.497887 0.0880598 0.421866
0.858351 0.0810101 0.415061
1 0.0873732 0.421607
0 0.373831 0.454124
0.172961 0.373892 0.454093
0.517693 0.361578 0.441764
0.888624 0.359243 0.439445
1 0.368612 0.448814
0 0.65037 0.461219
0.180865 0.651789 0.463127
0.524498 0.636835 0.448524
0.889326 0.628275 0.440314
1 0.629252 0.441657
0 0.880537 0.480171
0.189593 0.873045 0.473793
0.527733 0.850202 0.451728
0.883513 0.836164 0.438376
1 0.835065 0.437919
0 0 0.624521
0.0982223 0 0.591608
0.41944 0 0.551766
0.739712 0 0.528435
1 0 0.524437
0 0.118593 0.657847
0.161501 0.109575 0.649058
0.501305 0.0914015 0.631251
0.862043 0.0850233 0.625254
1 0.0917525 0.632288
0 0.37792 0.664027
0.177646 0.378592 0.6645
0.52285 0.366751 0.652628
0.894163 0.364431 0.650294
1 0.373358 0.659205
0 0.655375 0.672435
0.185458 0.656092 0.673457
0.527977 0.640162 0.657801
0.892851 0.630671 0.648585
1 0.630838 0.649073
0 0.882612 0.689219
0.191592 0.874464 0.681834
0.529198 0.851362 0.659266
0.886473 0.83743 0.645838
1 0.83682 0.645701
